// Server.default.options.sampleRate = 44100;
Server.default.options.sampleRate = 48000;
Server.default.options.memSize = (2 ** 15).asInteger;
OscMonitor.gui;
Minibee.enable;
Minibee.disableSmoothing;
Minibee.gui;
