/* 29 Sep 2021 08:19

*/

(1..10).permute(1);

(1..4).permute(99);
//:
var pre, post, set;
pre = ["m", "n", "st", "r", "k"];
post = ["o", "a", "i", "a", "i"];
set = IdentitySet();
{ | i |
	{ | j |
		set add: "".catList([pre.permute(i), post.permute(j)].flop.flat).asSymbol;
	} ! 120;
} ! 120;
set do: _.postln;
set.size;
// set.asArray.sort.reverse do: _.postln;
//:
var pre, set, perm;
pre = ["m", "n", "st", "r", "k"];
set = IdentitySet();
{ | i |
	perm = "".catList(pre.permute(i)).asSymbol;
	if (set includes: perm) {
		i.postln;
	}{
		set add: perm;
	};
	//	perm.postln;
} ! 125;
//:
1 * 2 * 3 * 4 * 5;
//:
/*
stimarinoka
komastinira
stinimakaro
stomanakiri
nirastakimo
monistiraka
konamistira
karanistomi
nikistaroma
nokamistari
nirastomaki
stanikiramo
mikiranasto
nakaristimo
rakomistani
nistokirama
stamorinika
mokiranista
stamirokina
karastinimo
kistaramino
rikamistona
stinorimaka
rikinomasta
mokarinasti
mistakorina
rikinastoma
stironikama
stiranimako
stakomaniri
rimistanako
namoristaki
komanirasti
nimikarasto
stokimarina
nastiromika
rastinakimo
stakamorini
nomastakiri
nastimikaro
storikamina
marinostaki
stamonakiri
stiranikoma
kostiminara
mastakirino
kiranimasto
stonakimari
moristikana
mikarastino
nistimoraka
ristonakima
ramistikona
rokastanimi
staramoniki
stikimarano
rimistonaka
rokamistina
kostinamari
marostikani
morastakini
stamirikona
storinakami
stirimonaka
stakimorina
stakirinamo
manorikista
raminastoki
stakiranomi
kistimonara
rikanomista
nikirastamo
nomirakasti
kistaranomi
makirostani
rakinostami
staramikino
konastamiri
ristanomaki
kimarastoni
koramanisti
karistamoni
mirastaniko
nimarastoki
ristomakani
rinostimaka
nastikomari
rimanostika
stiramonaki
mikastonira
kamiranisto
kiromastina
nastimokira
stomanirika
maranistoki
kastanorimi
rimostanika
rimastinako
nirokamista
kinistomara
ranikostima
stanakorimi
mikastinora
nastomikari
rikastomani
noramikasti
rokanastimi
moranakisti
starikanomi
storaminaki
makironasti
stimikanaro
kinorastima
ristinamoka
nikastomira
nostikirama
stokanimira
rikomistana
stikanamiro
stamoraniki
kostanirami
mastirokani
rakistomani
nikostimara
miranokasti
rastanikimo
nistimakaro
morikistana
staniramiko
stimaranoki
kimaranisto
stiranakomi
mokanirasti
namarostiki
minaristoka
nastorikami
nomakistari
ranastimoki
ronamistika
karostimina
raminostaki
namistaroki
mistarakino
rakinostima
stimanakori
nirikamasto
marinokista
kinorimasta
ranastokimi
stimonaraki
rimanakosti
ronastikima
ministaroka
kanimaristo
kastiranomi
nistokarima
stanirokami
rinakimosta
stirinomaka
mistorakina
makarinosti
nikimarosta
rinastomaki
nastamiriko
rastimokina
storamikani
rostamaniki
narokimasti
stimironaka
staronimika
kastanirimo
niromastaki
ranikamisto
stakarinimo
naristomika
rakinastimo
namakiristo
marastinoki
nikomarista
minostikara
kastinimora
kinarastomi
stimanorika
naristamoki
rimastakino
karomistina
stimoniraka
kamistonari
kimaristona
stomirinaka
morakinista
mastirikano
manokistari
nakarimisto
stanikaromi
makastinori
stakominari
nostamirika
ristinamako
nakiristoma
kiristamona
ramistonika
rimonakista
stonakamiri
komirinasta
mostikirana
rinokastami
rinikastoma
kimoranista
karinastomi
komarinista
kiraminasto
konistamira
ranamikosti
rimanikasto
stakorinami
stimakorani
stakironami
ronimakasti
rimastanoki
stirakamoni
rimakostani
rimokastani
mastonikira
kinomarasti
stamaniroki
mostarinaki
stimikanora
stinakomira
ramistakino
nikarastimo
rastomikina
kistarimano
rakostinami
starimakoni
naristokima
mastanikiro
kimanistaro
mirinostaka
kamistaroni
nimostaraki
stiniromaka
stimiranako
stirikanoma
marikistona
stominarika
ristonimaka
stanimariko
ramonistaki
kamoristani
starakinimo
kastomirani
stokamirani
norikamasti
nokamistira
ramonikasti
nostamakiri
starokamini
stikamonira
stanimaroki
ristanamiko
ranamokisti
minikastora
karimastino
ronastimika
mistoniraka
kamistaniro
monikastira
nomistakari
nimorikasta
nikimorasta
namakoristi
raminikosta
rastaminiko
mistoranaki
nakomirasti
mikastonari
nistamiroka
mikastaniro
kinostarami
mostarinika
stikimanaro
stiranamiko
ramikonasti
stakaniromi
stikinamaro
romistakani
ranistimako
marakinosti
miranostaki
mirastanoki
ristinakamo
nakiristamo
kiranomista
rokanistima
rikistanoma
niramostaki
nimakastiro
kanistorami
kinostarima
makinarosti
stanakimiro
ranikostami
marinastiko
stamarikoni
norimistaka
makistirano
kanistarimo
naromistaki
mostikarina
makistonira
nakastirimo
mikorastina
ramanostiki
mikaronasti
nikarastomi
niristomaka
naristokami
makanistori
nakistiramo
nokarastimi
nikistorama
kostarimani
mirakonasti
mastakinori
nistamakiro
stinomarika
narokimista
ristinakoma
kanostirami
stokarimani
rominakista
namorikasti
marakinisto
storikimana
stakironima
korimastina
narimostika
rinokastima
rastikimano
nirostamika
makostinira
marikastoni
stanarokimi
kastimanori
stakarinomi
nastokarimi
monirikasta
manirokista
rastaminoki
nimakorasti
karominasti
komanastiri
kastironami
korimastani
rikostinama
kastiromina
ranikimosta
stiramanoki
kirimastano
kistimanaro
kanistimora
stokamaniri
nomirakista
rostakanimi
kastinarimo
starokimani
mikorinasta
makoristani
staromikani
nastorakimi
karaminosti
koniramasti
stonirikama
starimikona
stomirikana
ramistaniko
rimokanista
rokinamista
kamanoristi
stakarimoni
mastinirako
marikastino
makirastino
starimonika
mastorikina
rinastamoki
kirostinama
stanirakimo
nastikaromi
maronikasti
rokaminista
nistamaroki
makirastoni
nokimirasta
namistariko
nimakostira
stimonarika
rakimanisto
stamakinori
rastinomaki
stikorimana
stamikonira
minastakori
ranistomaki
mirinastako
kinimarosta
ronikastima
nastiramoki
kistaronima
rikaminasto
nimorastaki
stimonikara
kamostarini
minastariko
kaniramisto
stanomirika
ranikomista
rakamistino
niramostika
mikorastani
mirikastano
rikanamosti
stimakinaro
kimanistora
rakimanosti
nirokastima
minostiraka
starikinoma
rikomanasti
storiminaka
stakinarimo
nakistarimo
romanastiki
kimonirasta
manastikori
stamarinoki
mistakirano
minastikora
naramokisti
mirakastino
nakistaromi
kaniramosti
nomistaraki
stanakimori
mikanirasto
nikastimora
kinistamora
manastikiro
kistamaniro
rimikonasta
raminakosti
nostimakari
kanistiroma
mokastirani
nostimakira
nokastirima
moranikista
stimokanira
monistarika
kinastiroma
kastinimaro
storanimika
rastinakomi
kistomarani
stimaronika
stamokirani
rinastokima
stonamikari
nomakistira
ronistimaka
kinastimora
marikostina
rakostanimi
komarinasti
rakimistona
rinamostika
ronikamista
nastirikamo
stokinarami
manikistora
koriminasta
nirikamosta
rimostakani
narikastimo
korinistama
kinimarasto
rikistomana
stamorikina
rinistamako
miranakosti
mikostinara
rakinistoma
stirimakano
kistanorami
staronimaki
minarokista
stanamikori
stinomaraki
manistorika
mostarikani
moranistika
stonamakiri
namirastiko
stonarikami
stimakarino
rikanostami
mostirinaka
stinakaromi
rinomastaki
stokanimari
nastimorika
rastokimani
nimastiroka
nomakirasti
manastiriko
rastanokimi
stonirakami
romikastani
minastokira
stakiranimo
rinistokama
kastorinima
stinarikamo
starimakino
mistorakani
mirakostani
ranokistima
stokarimina
konirastima
mikarastoni
mirinakasto
kistaromani
kostarimina
stiniramako
marastoniki
nomakirista
stinarakimo
rikastanimo
nostirakima
konimarista
stirikanamo
nistomikara
stakorimani
kanistorima
romistikana
mistarokani
kastaminiro
manirikasto
narimokasti
stirinakamo
nakoramisti
nastorikima
kamastiniro
makonaristi
kistamorani
kimistarano
starinikoma
makinostira
nastokirami
mistanorika
kimastaniro
kiranistamo
karonastimi
kirinamosta
romikastina
kamoristina
konastirami
mirastinako
kaniromasti
staranikimo
mikoranasti
nikamistaro
kimistarona
manaristiko
rikanistamo
stokinarima
makostinari
manaristoki
karamistino
staminaroki
rimanokista
kanistimaro
stakanimori
nastikamori
stirakomani
kinoristama
rimonakasti
rostikamina
rominikasta
kostanarimi
stakoramini
stamakironi
stimikorana
storanikima
rostimanika
kimiranosta
monakastiri
stokamarini
stakinomari
rinokamasti
stomiranika
stirinokama
karostanimi
rakomastini
stikiranamo
ramostinaki
stakonamiri
rinomikasta
naramikisto
staniromika
stiromakina
konarimista
moniristaka
nakistamiro
rastamokini
makinostari
mirostanaki
stironakima
ristokinama
stanaromiki
mikostarina
makistaniro
koranistami
kiminostara
konistirama
kanimirasto
ristanomika
starikamoni
stinimaroka
norakimasti
ministoraka
manirostaki
minakirosta
kamistarino
stakimonira
raminokista
kiranimosta
rikanimasto
mirokanista
korastimina
nimarokista
ronakastimi
kinarimasto
staminoraki
naramistiko
ranistamiko
staminorika
manokirasti
stikiranoma
mirostinaka
nimorakista
rikastamoni
ristikanoma
mikanastori
mistokarani
makastoniri
mikanostira
rokistanima
kimonastira
minikostara
koramistani
kiminastaro
ranostimaki
ristomikana
monirakista
starikomina
storaminika
nakamoristi
karomastini
marokistina
minastokari
staramikoni
kostinimara
rinamakosti
stomikinara
konastimari
ristanakomi
mikastarino
stakirimona
stikanamori
nistaramoki
ronakistima
rakimastino
rimakistano
kiramastino
stimakorina
komistanira
nimakistaro
stanikimora
moristanika
narokistami
stamonariki
rikanastomi
naristikoma
mikostanari
mokastinari
kirostamina
kostimarina
nokimistara
komastarini
koristinama
koranistima
stikimarona
rokaminasti
nokistarima
rostaminika
nakirostima
niramastoki
minostaraki
rikamastoni
ramostakini
mistarikona
stamakoniri
mastokirani
stokanarimi
mastirakoni
mokarastini
kistiranoma
marostikina
stironamika
noramakisti
ramastinoki
mostakaniri
storikanami
kirastimano
namakistiro
stikoranima
mastakoniri
stinokirama
nikastamiro
stinokimara
naromikista
kamistirano
staraminoki
nomirikasta
mokirinasta
nastimaroki
narimakisto
rostakamini
mistikarano
ranamostiki
kistinaroma
ronistakami
storikanima
mirastonaki
mistikanaro
nomarikasti
kimirostana
kistinamora
mirastikona
ristikomana
kamastirino
nimoristaka
rimonastaki
norastakimi
stikaromina
maranistiko
rinastimoka
marastikoni
rostakinima
kimastanori
namostirika
rostinamika
narimistako
nistakiramo
mokinarista
nimostakari
namistiroka
kistanimaro
nastirikoma
rakistamoni
manostariki
stanimikaro
kironamasti
narastomiki
nimastakiro
nomarakisti
romakistani
romikistana
romastinaki
namastokiri
ronimikasta
kinamistaro
stiranamoki
rinikamasto
mistakanori
narastimoki
rastinamoki
namoristika
rikastonima
rostimakani
moristakani
kamirastino
kamorastini
rakanimosti
miristanoka
nikastimaro
makostaniri
norimakista
kinomastira
nastakomiri
stinikaramo
ministokara
kastimorina
karominista
manistakori
stanimakori
nistamikaro
ranimistako
kiranomasti
mistanariko
stakaromini
ronikastami
rokastimina
stimorakani
kimanastiro
moranistaki
stikimonara
nostarakimi
kominarasti
ranomikista
stanomikira
nastimokari
karistomani
ranomistaki
stamokarini
stomaniraki
karistimano
stirikonama
kostinirama
stinokarima
marokinista
stomakinira
rikanastimo
minastoraki
stiminakaro
kirastinoma
kastirinamo
nimarakisto
kanorimasti
rakiminasto
rostikanima
nostamikari
rostikanami
stomarikina
marikonista
rinostamaki
nistarakomi
kistonarima
monakaristi
stomikarina
karistomina
mirakonista
korimanista
rimanistoka
rastinokami
stikanomira
stirominaka
mirokinasta
stikomarani
narikomista
nistokarami
stimiranoka
karinimosta
stikaranimo
makastiniro
kinamorasti
nikorimasta
nokirastami
kamistirona
kamirostina
stikaronima
kimirastona
rinimastoka
stomaraniki
stomirakani
marinastoki
staminakiro
kastarimoni
miristanako
nistakaromi
komistarina
maniristoka
stanikarimo
mostikinara
karanostimi
makanostiri
kinimorasta
nistirakamo
rikostimana
stanokirami
stanikamiro
mostikarani
stiraminoka
naristikamo
rakamonisti
romakistina
mistinakaro
mostaraniki
kostaranimi
rikistonama
minakistora
rominakasti
nikiromasta
stokarinima
nistamorika
staraminiko
nastorimaki
rinomistaka
kanaristomi
nikorastami
stonakirima
rokamanisti
ranakistomi
rimakastino
makonistari
nakamistiro
kostirinama
mirastokani
kiromanasti
riminastoka
stiranikamo
mirakanisto
ramostinika
makostirina
kostaminira
karanimisto
kistiramona
kinastamori
stimaniroka
stanimikora
manakistori
nistomiraka
rakistimano
stamirinoka
nirakimasto
maristikano
makorinista
kiranastimo
morakanisti
namirokasti
monistakari
nistamoraki
kastimaroni
manastokiri
namokastiri
stimokanari
mokinastari
kamonirista
rimakonista
kimonarista
stomarakini
ranomakisti
stinamaroki
stimarakoni
rastominika
ranistomika
rikastonami
staromaniki
narikamosti
minokarasti
makoristina
nastomariki
kistonirama
ristamaniko
rimakanosti
mastikonari
narastokimi
nirastomika
romastakini
mostarakini
kirinamasto
stamikanori
kinaristoma
riminakosta
nimokastari
mikonastari
stanamoriki
stomakaniri
norakistima
naramostiki
storakanimi
rimastonaki
mikirastano
stinikamora
stinarokima
makanirosti
kastarimino
rinistamoka
kastimarino
rinomastika
kinistamaro
rikistanamo
mistikarona
kirostamani
rikostanami
kastiminora
kinostirama
ramokistani
kanimastori
nirakastimo
maranokisti
minastiroka
stamikonari
monakirasti
stinorikama
kimonistara
ristokanima
stikaminaro
kamanistori
rakastimoni
kastorinami
stanomikari
kistanaromi
nostarimika
stanakiromi
nostakirami
rimastokina
makorinasti
kiramostina
mironastaki
kastiramino
kanistamiro
kistominara
nostarikami
kinirostama
romikinasta
ramakinisto
stanimoraki
staranokimi
stamikorina
rinimostaka
kimastorani
rinostamika
ramikinasto
rinistakamo
rimikastona
nastirokami
nastarimoki
rakistonima
konarastimi
mirastakino
kanirostami
nostarikima
stimanikaro
nistiramoka
rakostinima
monikirasta
mastonirika
rokistamina
kamanostiri
rostiminaka
stanikomira
stirikamano
stinoramika
stonakarimi
kistoranima
rinamokasti
karistonima
stokirinama
mokinirasta
narikistamo
nakamirosti
nistiramako
nikamorasti
minokirasta
kamostinira
rakonamisti
rastokamini
stimokinara
mistonarika
rikostamani
kistanomira
mikistarano
nimakostari
ristokimana
manostiraki
kimironasta
ranimakisto
karistanomi
rimikostana
minaristako
stimanikora
mirakistona
stirimanako
nomikarista
kastinorami
nokirimasta
manastiroki
mokistirana
stanikimaro
marastikino
mastakiniro
kimistanora
rimastikano
nokistarami
nakistimaro
rinomakasti
mastirakino
mironikasta
riminakasto
kinistaramo
maniristako
ranokamisti
rikimanosta
storanikami
rakanimisto
kistaramoni
morastinaki
kiraminosta
karonamisti
nimistoraka
ristominaka
nistikamaro
rimonikasta
mikarinosta
kanirastomi
mikanistaro
kanorimista
rinikamosta
mistaronika
mostinakari
karastinomi
mostinarika
karostimani
rikamonista
kominarista
stamarokini
rikominasta
rikamanisto
kostimanari
storikamani
kistarinamo
morikanasti
manistakiro
nikiramosta
maristaniko
rakonimasti
stamonirika
noramistaki
stiromanaki
koristimana
kirostimana
karinamosti
nokimastari
stimirokana
konastarimi
mostaniraki
nokamirasti
rastomaniki
rastonimaki
mostinikara
miranastoki
mokastarini
mironistaka
kastominari
mikastirano
stinirakoma
ristokanami
namikirosta
namorakisti
stiromikana
raministako
nirastokima
stamanikiro
kamistorani
korinastima
ramakonisti
ramanikosti
nastarikimo
nastimikora
ministakaro
mistakaniro
namostiraki
nistarokima
nakoristima
stimakinora
rikanamisto
rimokastina
stiramokina
stimikonara
nakimostari
marostinaki
nimorastika
kinastiramo
mikaranosti
monikistara
koristanami
kastamorini
ranikimasto
nirastikoma
ristamokina
stinokamira
minorakasti
ranakimisto
nastakorimi
storakimina
rimanokasti
nomistarika
miranikosta
nirakistoma
mikaristano
stakaronimi
kastinomari
namikarosti
manokistira
stanirokima
karonimista
mikiranosta
stanikamori
rakonimista
ramonikista
nikastomari
rakanostimi
nistarakimo
mikanastiro
ristikanamo
stakimirano
karistinamo
monikarasti
ranamistiko
kanirastimo
rikanistoma
stimarinako
morastinika
minokastira
stomarinika
stiraminako
ranistimoka
narastikomi
rastimanoki
stinakiroma
stamikaroni
stakonirima
koristamina
kistoramina
rastokanimi
manokirista
ristamonaki
ronakimasti
rokiminasta
mirikanosta
kistorimana
stakoranimi
kirimostana
ranomikasti
nistaromika
miranistako
nakirostami
stiramokani
kimirastano
manikirasto
stinamikora
ranimikasto
rokimastina
kinostamari
nirastimoka
narimastoki
miristonaka
stinamakori
konastirima
kanomirasti
konamaristi
minarakosti
nakostimari
mokanaristi
mastiraniko
ramikonista
norikastima
nakastorimi
mostarikina
makistonari
ranamikisto
stoniramaki
minastirako
stirikomana
mistonakari
nimakirosta
ristimokana
rikastimano
rokamastini
rakamistoni
kinamistora
stariminoka
rastikamino
kamirinosta
kinamastori
stinamakiro
mistokanari
morinikasta
stirokamina
minoristaka
mikastorina
mastikirona
kiristonama
ristimonaka
noramastiki
stiramaniko
kanomaristi
kinamirasto
nirakomasti
stinamokira
kirastomani
manorastiki
makonirista
mikanorista
stakimanori
kanirimosta
kimastonira
kimorinasta
nirostikama
kimistonara
stinorakima
stanarikimo
rimakinasto
ramistanoki
nimarakosti
rakistamino
mistaniroka
nimistakora
kostaramini
rinokistama
kamistanori
kastiminaro
ramakostini
moranikasti
rakastimino
makinastiro
stakinamiro
nikimarasto
stiranomaki
ranistakomi
nakiramosti
nastamoriki
staromikina
rakostimina
mastinorika
maristonika
stinomakari
nomastiraki
stirakinamo
maristinoka
nomastikira
rinimakosta
morikanista
stiranomika
namistikaro
staronikami
ristamanoki
rimistokana
ronastimaki
rastikimona
rinakamosti
karimanosti
kiramanosti
nastimirako
rastikanomi
rikinastamo
ronistamaki
komistarani
kirastonami
konistimara
kirastimona
stonamiraki
ramanokisti
kinastorami
morastaniki
ronikistama
ramonastiki
minarikasto
mikanirosta
rikimastona
kimastaroni
rostinamaki
rinamastiko
rostanikami
nokistimara
mikistorana
rastinamiko
stamironika
rimakanisto
mastanikori
stinaromaki
mirakinosta
mikinarosta
stominakira
stirimanoka
rinastakomi
kanamirosti
naristamiko
nomarastiki
mastirokina
stamokaniri
rastinimoka
rakanistomi
karinostami
rostamikani
rostinakami
ramistokina
nokaristima
nakoristami
kanaromisti
kistamarino
nirokamasti
stamokirina
ristikamona
kastanimiro
rikonastami
nimastirako
starikanimo
mokistinara
kistamonira
nokiristama
kiramanisto
kirastamoni
stanokamiri
nastikimora
rastamoniki
nikostirama
konimastira
mikanaristo
rastakinimo
rokanamisti
stiminokara
marikanosti
nastokimari
nikomastari
rikimostana
nostaramiki
rastikomina
stimanakiro
narastikimo
mastinaroki
ronastamiki
stomarikani
kiranostami
starinokami
stamikirona
nomakastiri
stakiramino
nastamikiro
romakinista
stariminako
kimostinara
mirinakosta
nastimakori
rastakimoni
konaristami
stiramakino
stomanikira
namakirosti
mistiranoka
mikoristana
makinistaro
morinistaka
ristakinoma
marakistino
nimikastaro
kanimostari
kistanorima
narostimika
naristomaki
kirostanima
nastomakiri
namikostari
nostiramika
rikinamasto
mikastirona
karinostima
nikastorami
nimastorika
makanistiro
kistaniramo
nistiromaka
korastamini
kinorastami
marakostini
stokaminari
stinamokari
stiramikona
karastimino
kastaronimi
stanorimaki
ranakistimo
rastonimika
mistokinara
namikistaro
kiramostani
ramanikisto
rikanimosta
stonarimaki
stonarimika
stikamorani
stakinaromi
rimakostina
ristonakami
nastomiraki
kironastami
rakomistina
namarikosti
stikarimano
namirikosta
karinistamo
kistanamori
ranimikosta
konarimasti
kimarinosta
kiminarosta
mikinarasto
koramastini
stinoramaki
rastakimino
rominastaki
rikaminosta
karanomisti
nakimistora
namokaristi
stikoranami
stimorinaka
komirastina
makarostini
komiranista
norastamiki
kirastamino
mistakirona
stokiminara
stonamikira
kimostirana
stakaminori
stirokinama
marastiniko
rikonamasti
ramonakisti
rikamanosti
kirastomina
stonarakimi
kiramistano
korimanasti
morakastini
karinomista
korinastami
stominaraki
ronikimasta
ramakinosti
nakaromisti
komanistira
rakistimona
mikonarasti
nastamiroki
kiristanamo
mastorakini
nirimokasta
stonimakira
stirokamani
konamastiri
stakiminora
namostariki
romanikasti
stokarinami
namikirasto
minastakiro
nokamastiri
nokistirama
mastinikaro
mistakinora
narikostima
rastimonaki
kinastorima
rastimaniko
mirakinasto
stikiramona
rastanikomi
nostimaraki
rinomakista
rinikostama
kamarinisto
kiminorasta
mostanikira
rimastinoka
mikonarista
nastamikori
noristikama
kanomastiri
staminirako
kamironasti
narikistoma
kiniramasto
starominaki
narokastimi
ramostikani
kaminarosti
nirastokami
storakimani
nostarimaki
komastaniri
staminikora
stirinamako
manarikisto
minirakosta
koniramista
kanistiramo
nikastarimo
makistinaro
staronamiki
nastikimaro
kostamirina
kanamostiri
makonistira
rokinastima
kanimostira
stokanamiri
nimostarika
stakorinima
staranikomi
monaristaki
mastirinako
stamiranoki
miristokana
rostimikana
mistanakiro
mikanarosti
mistaranoki
minakorista
minarastiko
ristakomani
manistokari
stinimarako
stamorinaki
stonirimaka
kariminasto
rikomastani
kiristomana
mikinostara
makistaroni
ristakimano
minirastako
ristamakino
starimokina
ramistikano
stikomanari
storakamini
stinarimoka
nistakiroma
karistinoma
morakinasti
ristimakona
romastinika
stikiromana
kamonastiri
mistakorani
stimanoraki
rikastamino
stomakirani
riminastako
kinomarista
kanostimari
nirostimaka
kanoristami
rakostimani
manirastiko
nimostakira
kinastomari
rimokinasta
rinistakoma
nastimoraki
rastikamoni
kistamanori
ramistonaki
stikonamira
kamonistira
nirikomasta
kanarostimi
stomarinaki
stinamorika
stinarokami
kinamostari
starinamiko
nomistikara
nakaristomi
ministakora
kamastoniri
starikomani
kamastinori
ristomanika
mokinistara
stakanirimo
manikostira
minostakira
marinistoka
stanokimari
kimastinaro
miranostika
stonikarami
stikomanira
nastakirimo
nistamirako
narokamisti
nakomaristi
mirakastoni
staminiroka
stamanoriki
narikamisto
mirinastoka
mikanostari
makanoristi
koraminasti
kamistinora
nostakimira
mastirikona
stanokirima
kimarastino
mastokirina
stimakanori
kanamiristo
nomaristaki
kastoramini
nakirastimo
mistinakora
stirokimana
maronikista
rastinomika
nokamirista
rikastanomi
maronistika
narakimosti
minarikosta
kistironama
nistimarako
stikinaroma
marikinasto
raminostika
ronakamisti
manastoriki
nakimorista
stonakirami
starakonimi
nastirimako
rostamakini
mostiranaki
kirimanosta
nimarikosta
koranimasti
rastomikani
mistironaka
rokamistani
rakostamini
kimarostani
rimakonasti
mastikorina
rinikomasta
karistamino
ramistokani
nimastariko
nakiromista
morikinasta
stinaramoki
ranakimosti
kamoranisti
storamakini
monarakisti
stiranokima
stamikaniro
stakinorami
stirimakona
nostakamiri
raminikasto
stimikarano
rinastakimo
manirostika
nistikomara
nirakostami
ramikostani
mistikonara
stanomiraki
kirostanami
marinokasti
stonimikara
nikoramista
komistirana
makironista
nistomaraki
nakimaristo
nikamarosti
nakiramisto
morastikina
rimanikosta
rinakomista
kanimarosti
mikonistara
storinikama
nirokistama
rastinikamo
namokirasti
kaminorasti
stimirakona
minakistaro
nomiristaka
kiranostima
mokaranisti
rastonamiki
nostirikama
nastirakomi
stamonikari
monarikasti
makaristino
nastokamiri
stimorikana
romastikina
moranastiki
rostinimaka
ramastokini
mokiranasti
nakostirami
stirikamona
ramokistina
namastiroki
makistorani
kastarinomi
rimikanasto
minorastaki
rakinastomi
kistarinoma
staminakori
komiranasti
ranikistamo
rinokamista
kaminostira
rakastinimo
stikamonari
ranomistika
kanostirima
nimakirasto
nastirokima
makinistora
narimikasto
rakistomina
rikastomina
mistarinoka
ranistikoma
stikonarima
namastikiro
nistokamira
namokirista
nastarokimi
kimonastari
stamirikano
manokaristi
rastikinoma
niristakoma
ramastikoni
stimarokina
marinikasto
stonikamira
kastironima
rostikamani
stirakinoma
stiminaroka
kanoristima
stiramonika
stirakamino
stikanarimo
nikistomara
stamirakino
karamistoni
kostanimira
komistanari
stikaminora
kinomistara
karamonisti
mastanoriki
stimakaroni
kiristamano
nimokirasta
kanirimasto
ranistamoki
karimistano
monarikista
norikistama
rinakastimo
makorastini
stanorakimi
staminikaro
kistanamiro
rimokistana
rakistinamo
kiromanista
nimistokara
nostimikara
kimastirano
starokanimi
kiristanoma
ranostamiki
ristaminoka
stikaramoni
rakimostani
nimostiraka
ranimostika
rikonamista
stonimarika
mistikanora
narastimiko
nimastakori
mokirastani
stikonirama
nistamokari
ristamikona
narakistomi
monikastari
rostakimani
kanastomiri
kastanimori
mastoniraki
rakastonimi
staromakini
kastirimona
makonirasti
rakamostini
stakamirino
mirokanasti
kimaronista
stinokamari
mikostirana
stikamirano
minarostika
kanistamori
mirastikano
nirikastamo
stanimirako
kanimistora
kistimanora
minastikaro
storinakima
rimakistona
stinarakomi
kimoranasti
morinakista
rimanastiko
stikoramani
makinastori
mikonirasta
raminastiko
nostirimaka
kamaristino
stanakirimo
rinimakasto
ristakamoni
stanikiroma
mironakasti
stokinamira
norimikasta
rikamonasti
stakinimaro
mokiristana
nimastokari
rokistanami
stinimoraka
ristamikano
ramistakoni
storakinami
kaminastiro
mostikanira
nikastiroma
stakinorima
kinomastari
mastironaki
kimostarani
starinimoka
nikamirasto
stakimirona
stimoranaki
morinastika
starakomini
stamokinari
nostikarima
noristamika
stironamaki
kiranistoma
miranastiko
mastikaniro
kirominasta
marikistano
mastaniriko
minirakasto
nomistiraka
stomikarani
nostakirima
stakimonari
stamonikira
nakimirasto
nikaromasti
stikaromani
kostimirana
kimoristana
nastirakimo
starakimoni
stironakami
karinimasto
rastonikima
mostanakiri
stominikara
nimikastora
kastiromani
mironastika
stokinimara
makistirona
kastimirona
nokistamari
narimakosti
narikomasti
kamaristoni
nistamikora
ronimastaki
ristakanomi
niramakisto
monarastiki
rimostikana
minastorika
kamiristona
rokanimasti
mokistarina
stokaramini
kimorastina
kastimaniro
kiramonasti
starikimona
konaramisti
norakistami
mikirostana
nikorastima
ranistakimo
mokanastiri
konirastami
stinimokara
norikimasta
ranostikami
rominastika
nimastaroki
ranistokima
stimikarona
nakostamiri
mikarinasto
kirimastona
stokiramani
stakanomiri
stanikorima
makaronisti
kinamirosta
starimaniko
marostinika
kaniristoma
komiristana
karistimona
noramistika
stirakimona
stanamokiri
mastikinaro
ristakanimo
marokinasti
stanimokira
niramokista
stamikinaro
nastimakiro
kistonamari
koranastimi
stikimanora
nokaramisti
stanokimira
nastaromiki
ristimakano
kistimarano
makostirani
rimastaniko
manistariko
manikastori
ristinomaka
komaristani
niromikasta
narostikima
kimistorana
kostanirima
ramikanosti
manistokira
maronakisti
mirokistana
kostimarani
ristanokami
ramikistano
karimastoni
kostanimari
namirikasto
kamiranosti
komastinari
storakinima
karonimasti
kinamostira
nomakaristi
marastokini
kimostanira
kamirostani
nistakorima
rinimokasta
nastirimoka
namaristoki
kistomanari
rostimanaki
mistakinaro
kastaromini
namistorika
mostakinira
mistaraniko
nastokirima
rakaminosti
moristakina
mostanikari
kistinamaro
mistokirana
ristakomina
nistikaroma
romistinaka
maristanoki
rokanistami
stanoramiki
mikistanaro
stiramikano
stokimanari
romikanista
maranikisto
mastokinira
komanaristi
staminokira
rinakimasto
monastikira
makoranisti
kinastamiro
monakistira
manistaroki
nokimarasti
narostakimi
stamorakini
ristonamaki
nikarimosta
nistimakora
stikominara
mastarinoki
kimanarosti
nikostarima
namikastiro
rokastinima
miristakano
kaminastori
staminokari
nikamaristo
nostikamira
kiminastora
makiristona
kaminostari
norikastami
stinomikara
mistanokari
mastonariki
stanokarimi
stikamarino
namostikari
mikaristona
rinastimako
narostamiki
ronistikama
kastamirino
mistinoraka
makastorini
stakominira
mistanakori
kanastiromi
kamaniristo
mistinokara
mostanariki
nakistimora
mostinaraki
naramistoki
manirakisto
kimarinasto
kistomanira
stanarimiko
kastonirami
stakiromani
rokimanasti
kimostanari
rimostakina
kanomistira
komarastini
rostanamiki
minarokasti
mistakarino
rinakomasti
karamostini
narimistoka
nomikistara
stimorakina
niromastika
mastokinari
staranimoki
romakanisti
stakinimora
namirastoki
stimaronaki
kinomirasta
mikaranisto
storinamaki
stimanariko
nastikiramo
stakonarimi
kimaristano
ronamakisti
kistinomara
rakinamisto
namirostika
kaminaristo
rikonimasta
kamarinosti
nomikastira
stanorimika
nikostamari
nistikorama
stakamoniri
stamirakoni
kastorimina
namastoriki
ronamikista
kastirinoma
rakistinoma
monirakasti
kiranamisto
nakirastomi
mokaristani
kanarimosti
namarikisto
kanastirimo
stiniramoka
kostarinami
nirastamiko
rastikonami
ramokinista
nirokastami
kiromastani
mikanistora
rikostanima
stinikamaro
mastorinaki
minakastori
rastominaki
ristamonika
ranastikomi
kanistomari
ranimakosti
mikistonara
storamaniki
nastimiroka
minakarosti
stinikomara
mistakonari
stinamirako
ronamistaki
kostamarini
rakanomisti
stomakarini
storanakimi
namorikista
rinamikasto
nikaristamo
kastinamori
minakirasto
namiristako
stamarikino
stikinomara
konimistara
kistaranimo
kistanarimo
nistakarimo
nirostakami
rinamikosta
norastimika
stikomarina
kirastanomi
kostinamira
kimistanaro
stakimaroni
nakomistari
kirinomasta
mikinastora
kamironista
namirakisto
rokanimista
nimistaroka
ristakamino
kanimirosta
stomikanira
ristanimoka
ramakistino
minikastaro
nostirakami
nistakomira
mirakanosti
namirokista
ranakomisti
nikiramasto
norastimaki
kamirinasto
kinarostima
rinostakima
konastimira
mikonastira
kostiranami
naromistika
nistamariko
rikomastina
kominastari
stinakiramo
manarikosti
kirinastoma
stinirokama
rastanimiko
mistarokina
ranikastimo
mastinariko
stinamiroka
mirakistano
koranamisti
nikamastori
stonamariki
marakonisti
mirostikana
ristakonami
kostiranima
nirastakomi
nistorimaka
manarostiki
mastorinika
kimorastani
starinikamo
mirostanika
nakistorima
stamakorini
nastikamiro
stiromanika
kimanostira
nimorakasti
rokimanista
mastikinora
starakimino
kastaniromi
ronimastika
mostakinari
mastiranoki
nimistakaro
rokimistana
monirastaki
mistonikara
starikonima
rinakostima
korastimani
raministoka
starinakimo
nomastikari
stinamariko
ristimanoka
miranistoka
stinakimora
stikanorima
namistirako
kinistorama
kanastimori
namarokisti
kistanomari
starimikano
niramikosta
kastamoniri
mikanorasti
rakimonista
rinikastamo
stikarimona
nikistamaro
makinorista
kinimastora
romistanaki
rimakinosta
nimistarako
mirostakina
romakastini
kamanistiro
nimirastoka
kimonarasti
rimistakano
mistarakoni
namaristiko
kostirimana
karanistimo
kanimistaro
rostanimaki
rinokimasta
nirakomista
stimanokira
stinokarami
nikarimasto
stikaranomi
nirikostama
morakistani
stinakimaro
rinakamisto
mistonakira
mokistarani
ramistinako
rastokimina
makiranisto
ramostikina
kamastorini
norakastimi
rikonistama
nimakorista
stakanorimi
mastonakiri
mostirakina
nimikostara
rinakastomi
mastoraniki
nimastikora
ranimokasti
koristamani
stanamiroki
niristokama
rimastakoni
mistarikano
nistamokira
rikastinoma
rostikinama
nimokistara
rimastonika
ristikonama
mistarinako
marinakisto
rakiminosta
mikostanira
stamakiniro
nirostakima
nomikastari
starikinamo
kariminosta
koramistina
stomikirana
kanarimisto
kaniristamo
mokanistira
stikarinamo
kastanomiri
kanimastiro
mastakironi
rimikanosta
nomistakira
stanakomiri
stikamorina
nostiramaki
ramikostina
karonistami
rimonastika
ramastikino
namistoraki
starominika
niramakosti
mostikanari
nastikorami
naromakisti
stamikinora
nirimostaka
stimakirona
stamoniraki
rokinimasta
ranikastomi
manakoristi
monastirika
mastakorini
rinimastako
narakistimo
kinaristamo
ramikistona
naristakimo
mirastonika
rimostinaka
stokimarani
rastinikoma
konaristima
nistorakima
ranastomiki
kimanirosta
stokiranami
nistikamora
mikastanori
stikoramina
marikinosta
stikaniramo
kistiramano
manoristika
stonikarima
nostakarimi
stamironaki
ristomakina
stimanaroki
rakinomista
nistarokami
rostakimina
stamanikori
mikastaroni
stiramakoni
mastikanori
manostikari
niramokasti
mirikastona
stanirimako
manikaristo
ramonistika
rinamistako
ristanikoma
kastiniramo
stakirinoma
nastiramiko
stimaraniko
nikarostima
marokanisti
stinaramiko
stimarikano
manikorasti
kastamironi
kistoramani
narikostami
ronamikasti
kostamaniri
narimokista
stominiraka
mistikorana
starinokima
namostikira
mistinaroka
kanamistiro
stakiminaro
konimirasta
starokimina
nirastikamo
kironimasta
rakinimosta
ramikinosta
kinaromista
narakomisti
kimastorina
stimakirano
koristanima
narimostaki
mastiniroka
staronikima
nakiromasti
stonikimara
monakistari
ronistakima
miranokista
stirinakoma
namastiriko
nokimarista
manorakisti
manostikira
mastikirano
storimikana
rimastokani
mistakonira
stanikomari
rakinistamo
nikostamira
stonimakari
mostirikana
rokinamasti
stakiromina
namistakori
stomirakina
stinakamiro
ramokinasti
kaminirosta
kinamorista
kinaromasti
stikironama
minastaroki
kistamaroni
karostamini
namokistari
nomarikista
marostakini
norimastaki
stimokarani
stinarikoma
rinamostaki
stikamanori
nistokimara
kistaminaro
nimokarista
stinakamori
kanaristimo
maristokani
stokanirami
kanimorista
nimokarasti
kimostarina
namikaristo
karastimoni
ranamistoki
starikonami
komaristina
ristikamano
manirakosti
stakaminiro
romanakisti
rastimikona
minakorasti
storamikina
kastomirina
stinimakora
nistirakoma
kamaronisti
manikirosta
starinakomi
narimikosta
stakanimiro
nostamiraki
nakomastiri
nakorimista
stonakimira
nokastimira
nikamorista
stimonakari
kastimonari
stinamoraki
minostarika
ramanistoki
manistirako
kanistaromi
nomikirasta
maranikosti
koraminista
stanomakiri
nastakimiro
mastinokira
rostinikama
stokaranimi
ristakimona
ranimokista
rostimakina
karanimosti
kistinaramo
kamostirani
ranokimasti
nirakamisto
kistinorama
kanirostima
ristamakoni
makiranosti
manakostiri
kimarostina
nostakimari
rikonastima
naramikosti
monistakira
nimirostaka
starakinomi
stanirakomi
mokastirina
nirakamosti
nirimakosta
nirimastako
marikanisto
rimistakona
rikostamina
morastikani
ristanamoki
minokarista
rastakomini
mistirokana
makistorina
kanimorasti
nakimastori
stiranimoka
kastonamiri
mistirakano
komistinara
stimakaniro
kinimastaro
kinirastoma
stamikarino
stanorikima
nikistamora
nikoramasti
makistarino
ristinokama
stanimokari
namistokira
kistamirano
kimaronasti
nomirastika
kastaminori
kominirasta
mikaronista
nimakarosti
stikamaniro
mostanirika
stiminoraka
rostikimana
mistakaroni
rastanomiki
ranimastoki
ronastakimi
nostikarami
kinoramista
nistomakari
stomakirina
mastaniroki
kinaramosti
mastikaroni
stonarikima
stanarimoki
manakiristo
namikostira
koranimista
kistiranamo
kirimanasto
makonastiri
ramakistoni
nokastarimi
mokinarasti
kistaronami
namokistira
mistiranako
nistomarika
rinastikamo
storimanika
stimakonira
kimastonari
nistorakami
nostimarika
mostinakira
mikastinaro
manistoraki
nikaromista
stironimaka
rastonikami
rastomakini
rakastinomi
makastirino
kaministora
nakastimori
manikostari
narakostimi
marinikosta
nakimastiro
staniromaki
stikarinoma
nakistamori
kistamirona
stakomirina
namiristoka
naristakomi
rastikanimo
kistimorana
minorakista
stakonimari
stikomirana
romistanika
mirastakoni
nistirokama
rikanostima
rinakistoma
ramastiniko
nomastariki
rikinamosta
stanimakiro
mikistanora
minakostira
stokiranima
minokastari
karonistima
mistanokira
staranimiko
kistonimara
koministara
rikistamona
monistaraki
kastonirima
nirikastoma
kirimonasta
mikarostani
nikirostama
komaranisti
nakimostira
kastinorima
naristimako
kamistinaro
ronamastiki
monastikari
minarakisto
korinamasti
stikamirona
kinamastiro
nakomistira
stirimokana
makistinora
nakimarosti
namostakiri
nakastimiro
mostakirani
karomistani
kinamarosti
staniramoki
maristakoni
kimastarino
norimastika
nirakimosta
morinastaki
rikimonasta
ranistokami
kamiristano
namorastiki
kanorastimi
korastinami
niromakista
morikastina
kastarinimo
nirakistamo
nirimastoka
kirastinamo
makastironi
minikarasto
stimarikona
mistokarina
mistinarako
konistarima
kamostirina
konamirasti
staramokini
stinirakamo
stirakanomi
rastinokima
norimakasti
manikastiro
nikamistora
kinarostami
rokastinami
karomanisti
nimastokira
roministaka
ristimanako
rinostakami
nomaristika
mastariniko
storinimaka
manostakiri
ristakonima
kistimarona
rikamostina
mikinorasta
nokarimasti
stomakinari
stinikorama
stikaramino
rinakostami
konirimasta
kiramonista
stamariniko
nakarimosti
rokastimani
ristanikamo
rikastimona
nikaramosti
rostanimika
romikanasti
kinastomira
komanistari
mastinokari
korinamista
ranomastiki
rinamastoki
kirinostama
marikonasti
kamistorina
rikamostani
romanistaki
namakostiri
kamistonira
mastikonira
stinorakami
namistikora
nokimastira
namikorista
manakirosti
ristanokima
nostamariki
makinorasti
starokinima
stomiranaki
maristonaki
stirakonami
stakomarini
stakomirani
nokaristami
ristokamani
norastikami
rakimostina
rinamokista
rakominista
rinastikoma
staranomiki
kastorimani
mistirakona
ranimistoka
rinakistamo
kastonimira
mirostakani
kostinarami
minirastoka
rostakinami
stakinomira
makostarini
nimirokasta
stinikaroma
mistanikora
stakimaniro
stirakonima
ramikastino
nakamiristo
ranokastimi
ranostikima
rakistanomi
rakominasti
stonikirama
makistanori
manirokasti
nomastirika
mastinikora
nistarikamo
narikimasto
mirastokina
nikamostari
makirinasto
kostaminari
moristinaka
ristomanaki
kastimorani
rakinomasti
rikomanista
stamorikani
monaristika
kanastorimi
stamaniriko
stanomariki
mokistanira
rakimonasti
starinomika
kistiromana
ristonamika
stonaramiki
rikinostama
kostinarima
konamirista
nimastikaro
ronimistaka
nastorimika
kironistama
kiniromasta
nikistaramo
niramastiko
stinakorima
karistonami
nistimokara
korinimasta
nikomarasti
kiminarasto
mastinakiro
manostirika
mikironasta
rastokinami
narimastiko
stamaroniki
rimokanasti
ranastikimo
karastomini
mirokastani
manirikosta
nikamirosta
karimonasti
komanirista
mistonaraki
monastakiri
stonamirika
nomikarasti
kistaminora
maronistaki
stanimiroka
stiminakora
stakorimina
nimakaristo
nimarikasto
nirastamoki
mistokanira
stikamaroni
nakorimasti
kastimirano
komastirani
stamikorani
minikorasta
nastoramiki
marinostika
romastikani
kimiranasto
manikistaro
kiramistona
kastinomira
minirokasta
storimakani
kironamista
mostiniraka
nimostikara
mostirakani
nistakimaro
kistamonari
maristikona
ronistamika
stakamironi
kistomirana
nistoramika
rikistamano
nokarimista
maristinako
kastonarimi
rostanikima
kiranastomi
rastimikano
nikomastira
stanamiriko
marinakosti
rakaministo
manarokisti
rimanastoki
nirakostima
karimostina
stokanirima
nastarimiko
kanostamiri
nistarimoka
naromastiki
mikirastona
kanamistori
mikarostina
ramokanisti
nimirastako
marinistako
kinirastamo
mokirastina
niristamako
rakimastoni
stikanorami
riminokasta
nostikimara
norakamisti
stirakanimo
narakimisto
kinostimara
nakistomira
stakiramoni
kimanirasto
ranikamosti
mastinoraki
rostanakimi
nastikiroma
marostaniki
nakirimasto
nokiramista
rastimonika
stikanaromi
stimokarina
stakonirami
stakiniroma
noristakami
kimanorista
romastaniki
makirostina
kimanaristo
stinarimako
namikastori
stakimarino
stirinamoka
rokistinama
maristokina
nistakorami
stikiramano
nistikaramo
ristanakimo
makaniristo
naromikasti
mastarikino
romistakina
stomikanari
rakistonami
nakostirima
starinamoki
starinomaki
marokastini
stominakari
korastanimi
kirastanimo
romanistika
nirokimasta
minikarosta
ranostimika
stikonarami
namastikori
namakistori
manokastiri
mostiranika
nokastamiri
mistorinaka
nimakistora
ramikanisto
nakimirosta
rimakastoni
rastonakimi
monirastika
nimirakasto
nimastoraki
kanistomira
stakonimira
makirinosta
stinakorami
rinastokami
stanirikamo
miranakisto
ranostakimi
stanamikiro
namirakosti
ramanistiko
manikarosti
nikastiramo
rastimokani
noristamaki
nimikarosta
nakastomiri
kinarimosta
ronastikami
stiromakani
karimanisto
rastinimako
konimarasti
kimastirona
niramistako
stimakonari
nimarostika
rastamikino
rakonastimi
kastominira
minirostaka
kamirastoni
makinaristo
nimirakosta
starimokani
rokistamani
nimaristoka
stiranokami
ramastoniki
stokamirina
makinirosta
nikoristama
marakistoni
rinostikama
makarinisto
kaniromista
niramikasto
nirakastomi
ristakinamo
nokastimari
ristonikama
minorastika
stakarimino
kistonamira
mokaristina
rastikomani
ristaminako
rakonistami
kistoranami
rokinistama
rakimistano
stonikamari
rokistimana
ranokimista
starikamino
mistaronaki
nistokamari
nistakimora
kanastimiro
karimistona
stokimanira
noristakima
kimanostari
stomanariki
kamonaristi
nistorikama
stanirikoma
mastirinoka
mirikostana
niramistoka
staminariko
nakamostiri
kamanirosti
namirostaki
korastinima
mokistanari
nokistamira
stikanimora
ronakimista
mostakirina
raminokasti
mikinastaro
rostamikina
stakirimano
kistamorina
manorikasti
rinamistoka
nokamaristi
narokistima
karistanimo
kistanimora
minorikasta
rokimastani
monakirista
nikirastoma
stimonakira
minokistara
rastimakino
rastakonimi
korimistana
ristokamina
stinomakira
niristamoka
norikamista
kostiramina
rakanistimo
mokastinira
kamonistari
mokanistari
kinimostara
stokinirama
ranikomasti
kirastonima
nakostarimi
stamokinira
rakomanisti
nakamistori
kastinamiro
ronakistami
mastarokini
stikaronami
rikimanasto
kiromistana
namistokari
rakinamosti
rimanostaki
stoniramika
stinomiraka
nakastiromi
starimonaki
norakimista
stikorinama
kinaramisto
karinistoma
mikostarani
nastamokiri
namikorasti
stirokanami
rostaminaki
maranostiki
nakomirista
kistonarami
rimostanaki
nistaramiko
stokinamari
nikarostami
kinarastimo
minakastiro
nikomirasta
rokastamini
niristakamo
konamistari
nimarokasti
stimirakano
rastamikoni
stirakomina
stamiraniko
namikistora
kastiramoni
kinostamira
staronakimi
rikamastino
mistoranika
stikinaramo
minostakari
rimanakisto
stikonamari
rastimakoni
stanarikomi
nikostarami
konistarami
karimostani
nikastorima
mokastaniri
kamarostini
starokinami
rinistomaka
ramistinoka
stimanirako
kinastimaro
konistamari
kinoramasti
stimarokani
nikimastaro
stamakirino
ranimastiko
kanostarimi
kostimanira
monastariki
rastakinomi
rostinakima
rimikastano
kironastima
rastikonima
rastiminoka
mastokarini
karastonimi
marokistani
ronikamasti
nostamikira
stanikorami
kamostaniri
norastikima
kaminorista
nistaromaki
stonimiraka
stanirimoka
mostakarini
manirastoki
stonirakima
rikamistano
stakiniramo
nikamastiro
mistanoraki
storanamiki
rinastamiko
nokastirami
noristimaka
kiramastoni
nikamostira
stomanikari
kimastinora
starikimano
mistanirako
stamirokani
minarastoki
komirastani
makinirasto
nistakamiro
stirokanima
stiminarako
nastiromaki
nastikarimo
kastirimano
nikastaromi
stimokirana
nastikorima
mokanirista
nimarostaki
kinastarimo
nokiramasti
morinakasti
nakistiroma
stanimorika
nakorastimi
starimanoki
kirinastamo
stimanokari
nirimakasto
stimarakino
kamonirasti
stokaminira
stinakarimo
ranikistoma
rikimastano
komastirina
karinastimo
nikaristoma
kanoramisti
mistorikana
kistaromina
nastakiromi
nakostimira
manistiroka
stirakimano
nikastamori
nastomirika
stiranakimo
mastikarino
mastarikoni
stikimorana
monastiraki
stinaromika
minarostaki
ranimostaki
kamastironi
rimonistaka
nastomikira
kostamirani
maristakino
storanimaki
nistimaroka
mirikonasta
nistarikoma
nistakomari
nikaramisto
ramokastini
kanomistari
manoristaki
stinakomari
nikomistara
stikanomari
romakinasti
moristanaki
kiranamosti
nimokastira
kistaniroma
rastiminako
kaministaro
rakastomini
storikinama
marikostani
kimanastori
kimanorasti
nastikomira
romanikista
kastiranimo
rinamakisto
kaminirasto
mirakostina
kiniramosta
mastorikani
mironakista
noramikista
ronimakista
stanorikami
kanomirista
kastomaniri
rastokinima
kistomarina
naristimoka
nakimorasti
kamorinasti
ranastimiko
rimistanoka
nostikamari
nimarastiko
ranokistami
morikastani
monistikara
nistomakira
mastanokiri
nomirastaki
nakirimosta
rinastomika
mikoranista
narikimosta
miristakona
kostarinima
mikistarona
karostinami
rakistanimo
narostikami
mikastorani
mirokastina
rimastikona
monikarista
storinamika
stonimaraki
stinamikaro
stamanokiri
namistakiro
mokarinista
mirastinoka
mastironika
ministarako
kastomarini
nakistorami
mirinokasta
kamostinari
nirastimako
stikaniroma
morakistina
kistorinama
mastonikari
rastikinamo
rikanomasti
rakinimasto
mistanaroki
karinomasti
mokinastira
kinistaroma
niromakasti
karostinima
niromistaka
rimanistako
stimoranika
kastimonira
storimanaki
manakistiro
ristanimako
ranakostimi
nakistomari
stikanimaro
ristamokani
mastaroniki
nastokimira
koniristama
karaministo
nimakastori
rikastinamo
stakinamori
stamirinako
nirostamaki
mastikorani
nakimistaro
manistikaro
konimastari
nistakamori
makiristano
manistikora
kinamaristo
stikinamora
kastonimari
rakonistima
kinastaromi
karimonista
riminostaka
nistoramaki
starinimako
nistarimako
manikorista
raminakisto
mistanikaro
ranistikamo
stikinorama
nikimostara
kominastira
rastanimoki
nimaristako
maronastiki
narikastomi
kistarimona
karinamisto
nastimariko
ramikastoni
ramostaniki
stokirimana
nastarikomi
nostimiraka
stokiramina
storimakina
miranikasto
kanamoristi
kastoranimi
kimaranosti
kastiniroma
nastakimori
stakimorani
stikonimara
minakaristo
mirikanasto
mastinakori
kamorinista
kanostimira
makaristoni
nikimastora
kostanamiri
kastinaromi
rokinastami
stamikirano
nistamakori
nimikorasta
nakarostimi
mastokaniri
stokimirana
narostimaki
minakostari
nokirastima
kostiramani
-> 3600
stimarinoka
komastinira
stinimakaro
stomanakiri
nirastakimo
monistiraka
konamistira
karanistomi
nikistaroma
nokamistari
nirastomaki
stanikiramo
mikiranasto
nakaristimo
rakomistani
nistokirama
stamorinika
mokiranista
stamirokina
karastinimo
kistaramino
rikamistona
stinorimaka
rikinomasta
mokarinasti
mistakorina
rikinastoma
stironikama
stiranimako
stakomaniri
rimistanako
namoristaki
komanirasti
nimikarasto
stokimarina
nastiromika
rastinakimo
stakamorini
nomastakiri
nastimikaro
storikamina
marinostaki
stamonakiri
stiranikoma
kostiminara
mastakirino
kiranimasto
stonakimari
moristikana
mikarastino
nistimoraka
ristonakima
ramistikona
rokastanimi
staramoniki
stikimarano
rimistonaka
rokamistina
kostinamari
marostikani
morastakini
stamirikona
storinakami
stirimonaka
stakimorina
stakirinamo
manorikista
raminastoki
stakiranomi
kistimonara
rikanomista
nikirastamo
nomirakasti
kistaranomi
makirostani
rakinostami
staramikino
konastamiri
ristanomaki
kimarastoni
koramanisti
karistamoni
mirastaniko
nimarastoki
ristomakani
rinostimaka
nastikomari
rimanostika
stiramonaki
mikastonira
kamiranisto
kiromastina
nastimokira
stomanirika
maranistoki
kastanorimi
rimostanika
rimastinako
nirokamista
kinistomara
ranikostima
stanakorimi
mikastinora
nastomikari
rikastomani
noramikasti
rokanastimi
moranakisti
starikanomi
storaminaki
makironasti
stimikanaro
kinorastima
ristinamoka
nikastomira
nostikirama
stokanimira
rikomistana
stikanamiro
stamoraniki
kostanirami
mastirokani
rakistomani
nikostimara
miranokasti
rastanikimo
nistimakaro
morikistana
staniramiko
stimaranoki
kimaranisto
stiranakomi
mokanirasti
namarostiki
minaristoka
nastorikami
nomakistari
ranastimoki
ronamistika
karostimina
raminostaki
namistaroki
mistarakino
rakinostima
stimanakori
nirikamasto
marinokista
kinorimasta
ranastokimi
stimonaraki
rimanakosti
ronastikima
ministaroka
kanimaristo
kastiranomi
nistokarima
stanirokami
rinakimosta
stirinomaka
mistorakina
makarinosti
nikimarosta
rinastomaki
nastamiriko
rastimokina
storamikani
rostamaniki
narokimasti
stimironaka
staronimika
kastanirimo
niromastaki
ranikamisto
stakarinimo
naristomika
rakinastimo
namakiristo
marastinoki
nikomarista
minostikara
kastinimora
kinarastomi
stimanorika
naristamoki
rimastakino
karomistina
stimoniraka
kamistonari
kimaristona
stomirinaka
morakinista
mastirikano
manokistari
nakarimisto
stanikaromi
makastinori
stakominari
nostamirika
ristinamako
nakiristoma
kiristamona
ramistonika
rimonakista
stonakamiri
komirinasta
mostikirana
rinokastami
rinikastoma
kimoranista
karinastomi
komarinista
kiraminasto
konistamira
ranamikosti
rimanikasto
stakorinami
stimakorani
stakironami
ronimakasti
rimastanoki
stirakamoni
rimakostani
rimokastani
mastonikira
kinomarasti
stamaniroki
mostarinaki
stimikanora
stinakomira
ramistakino
nikarastimo
rastomikina
kistarimano
rakostinami
starimakoni
naristokima
mastanikiro
kimanistaro
mirinostaka
kamistaroni
nimostaraki
stiniromaka
stimiranako
stirikanoma
marikistona
stominarika
ristonimaka
stanimariko
ramonistaki
kamoristani
starakinimo
kastomirani
stokamirani
norikamasti
nokamistira
ramonikasti
nostamakiri
starokamini
stikamonira
stanimaroki
ristanamiko
ranamokisti
minikastora
karimastino
ronastimika
mistoniraka
kamistaniro
monikastira
nomistakari
nimorikasta
nikimorasta
namakoristi
raminikosta
rastaminiko
mistoranaki
nakomirasti
mikastonari
nistamiroka
mikastaniro
kinostarami
mostarinika
stikimanaro
stiranamiko
ramikonasti
stakaniromi
stikinamaro
romistakani
ranistimako
marakinosti
miranostaki
mirastanoki
ristinakamo
nakiristamo
kiranomista
rokanistima
rikistanoma
niramostaki
nimakastiro
kanistorami
kinostarima
makinarosti
stanakimiro
ranikostami
marinastiko
stamarikoni
norimistaka
makistirano
kanistarimo
naromistaki
mostikarina
makistonira
nakastirimo
mikorastina
ramanostiki
mikaronasti
nikarastomi
niristomaka
naristokami
makanistori
nakistiramo
nokarastimi
nikistorama
kostarimani
mirakonasti
mastakinori
nistamakiro
stinomarika
narokimista
ristinakoma
kanostirami
stokarimani
rominakista
namorikasti
marakinisto
storikimana
stakironima
korimastina
narimostika
rinokastima
rastikimano
nirostamika
makostinira
marikastoni
stanarokimi
kastimanori
stakarinomi
nastokarimi
monirikasta
manirokista
rastaminoki
nimakorasti
karominasti
komanastiri
kastironami
korimastani
rikostinama
kastiromina
ranikimosta
stiramanoki
kirimastano
kistimanaro
kanistimora
stokamaniri
nomirakista
rostakanimi
kastinarimo
starokimani
mikorinasta
makoristani
staromikani
nastorakimi
karaminosti
koniramasti
stonirikama
starimikona
stomirikana
ramistaniko
rimokanista
rokinamista
kamanoristi
stakarimoni
mastinirako
marikastino
makirastino
starimonika
mastorikina
rinastamoki
kirostinama
stanirakimo
nastikaromi
maronikasti
rokaminista
nistamaroki
makirastoni
nokimirasta
namistariko
nimakostira
stimonarika
rakimanisto
stamakinori
rastinomaki
stikorimana
stamikonira
minastakori
ranistomaki
mirinastako
kinimarosta
ronikastima
nastiramoki
kistaronima
rikaminasto
nimorastaki
stimonikara
kamostarini
minastariko
kaniramisto
stanomirika
ranikomista
rakamistino
niramostika
mikorastani
mirikastano
rikanamosti
stimakinaro
kimanistora
rakimanosti
nirokastima
minostiraka
starikinoma
rikomanasti
storiminaka
stakinarimo
nakistarimo
romanastiki
kimonirasta
manastikori
stamarinoki
mistakirano
minastikora
naramokisti
mirakastino
nakistaromi
kaniramosti
nomistaraki
stanakimori
mikanirasto
nikastimora
kinistamora
manastikiro
kistamaniro
rimikonasta
raminakosti
nostimakari
kanistiroma
mokastirani
nostimakira
nokastirima
moranikista
stimokanira
monistarika
kinastiroma
kastinimaro
storanimika
rastinakomi
kistomarani
stimaronika
stamokirani
rinastokima
stonamikari
nomakistira
ronistimaka
kinastimora
marikostina
rakostanimi
komarinasti
rakimistona
rinamostika
ronikamista
nastirikamo
stokinarami
manikistora
koriminasta
nirikamosta
rimostakani
narikastimo
korinistama
kinimarasto
rikistomana
stamorikina
rinistamako
miranakosti
mikostinara
rakinistoma
stirimakano
kistanorami
staronimaki
minarokista
stanamikori
stinomaraki
manistorika
mostarikani
moranistika
stonamakiri
namirastiko
stonarikami
stimakarino
rikanostami
mostirinaka
stinakaromi
rinomastaki
stokanimari
nastimorika
rastokimani
nimastiroka
nomakirasti
manastiriko
rastanokimi
stonirakami
romikastani
minastokira
stakiranimo
rinistokama
kastorinima
stinarikamo
starimakino
mistorakani
mirakostani
ranokistima
stokarimina
konirastima
mikarastoni
mirinakasto
kistaromani
kostarimina
stiniramako
marastoniki
nomakirista
stinarakimo
rikastanimo
nostirakima
konimarista
stirikanamo
nistomikara
stakorimani
kanistorima
romistikana
mistarokani
kastaminiro
manirikasto
narimokasti
stirinakamo
nakoramisti
nastorikima
kamastiniro
makonaristi
kistamorani
kimistarano
starinikoma
makinostira
nastokirami
mistanorika
kimastaniro
kiranistamo
karonastimi
kirinamosta
romikastina
kamoristina
konastirami
mirastinako
kaniromasti
staranikimo
mikoranasti
nikamistaro
kimistarona
manaristiko
rikanistamo
stokinarima
makostinari
manaristoki
karamistino
staminaroki
rimanokista
kanistimaro
stakanimori
nastikamori
stirakomani
kinoristama
rimonakasti
rostikamina
rominikasta
kostanarimi
stakoramini
stamakironi
stimikorana
storanikima
rostimanika
kimiranosta
monakastiri
stokamarini
stakinomari
rinokamasti
stomiranika
stirinokama
karostanimi
rakomastini
stikiranamo
ramostinaki
stakonamiri
rinomikasta
naramikisto
staniromika
stiromakina
konarimista
moniristaka
nakistamiro
rastamokini
makinostari
mirostanaki
stironakima
ristokinama
stanaromiki
mikostarina
makistaniro
koranistami
kiminostara
konistirama
kanimirasto
ristanomika
starikamoni
stinimaroka
norakimasti
ministoraka
manirostaki
minakirosta
kamistarino
stakimonira
raminokista
kiranimosta
rikanimasto
mirokanista
korastimina
nimarokista
ronakastimi
kinarimasto
staminoraki
naramistiko
ranistamiko
staminorika
manokirasti
stikiranoma
mirostinaka
nimorakista
rikastamoni
ristikanoma
mikanastori
mistokarani
makastoniri
mikanostira
rokistanima
kimonastira
minikostara
koramistani
kiminastaro
ranostimaki
ristomikana
monirakista
starikomina
storaminika
nakamoristi
karomastini
marokistina
minastokari
staramikoni
kostinimara
rinamakosti
stomikinara
konastimari
ristanakomi
mikastarino
stakirimona
stikanamori
nistaramoki
ronakistima
rakimastino
rimakistano
kiramastino
stimakorina
komistanira
nimakistaro
stanikimora
moristanika
narokistami
stamonariki
rikanastomi
naristikoma
mikostanari
mokastinari
kirostamina
kostimarina
nokimistara
komastarini
koristinama
koranistima
stikimarona
rokaminasti
nokistarima
rostaminika
nakirostima
niramastoki
minostaraki
rikamastoni
ramostakini
mistarikona
stamakoniri
mastokirani
stokanarimi
mastirakoni
mokarastini
kistiranoma
marostikina
stironamika
noramakisti
ramastinoki
mostakaniri
storikanami
kirastimano
namakistiro
stikoranima
mastakoniri
stinokirama
nikastamiro
stinokimara
naromikista
kamistirano
staraminoki
nomirikasta
mokirinasta
nastimaroki
narimakisto
rostakamini
mistikarano
ranamostiki
kistinaroma
ronistakami
storikanima
mirastonaki
mistikanaro
nomarikasti
kimirostana
kistinamora
mirastikona
ristikomana
kamastirino
nimoristaka
rimonastaki
norastakimi
stikaromina
maranistiko
rinastimoka
marastikoni
rostakinima
kimastanori
namostirika
rostinamika
narimistako
nistakiramo
mokinarista
nimostakari
namistiroka
kistanimaro
nastirikoma
rakistamoni
manostariki
stanimikaro
kironamasti
narastomiki
nimastakiro
nomarakisti
romakistani
romikistana
romastinaki
namastokiri
ronimikasta
kinamistaro
stiranamoki
rinikamasto
mistakanori
narastimoki
rastinamoki
namoristika
rikastonima
rostimakani
moristakani
kamirastino
kamorastini
rakanimosti
miristanoka
nikastimaro
makostaniri
norimakista
kinomastira
nastakomiri
stinikaramo
ministokara
kastimorina
karominista
manistakori
stanimakori
nistamikaro
ranimistako
kiranomasti
mistanariko
stakaromini
ronikastami
rokastimina
stimorakani
kimanastiro
moranistaki
stikimonara
nostarakimi
kominarasti
ranomikista
stanomikira
nastimokari
karistomani
ranomistaki
stamokarini
stomaniraki
karistimano
stirikonama
kostinirama
stinokarima
marokinista
stomakinira
rikanastimo
minastoraki
stiminakaro
kirastinoma
kastirinamo
nimarakisto
kanorimasti
rakiminasto
rostikanima
nostamikari
rostikanami
stomarikina
marikonista
rinostamaki
nistarakomi
kistonarima
monakaristi
stomikarina
karistomina
mirakonista
korimanista
rimanistoka
rastinokami
stikanomira
stirominaka
mirokinasta
stikomarani
narikomista
nistokarami
stimiranoka
karinimosta
stikaranimo
makastiniro
kinamorasti
nikorimasta
nokirastami
kamistirona
kamirostina
stikaronima
kimirastona
rinimastoka
stomaraniki
stomirakani
marinastoki
staminakiro
kastarimoni
miristanako
nistakaromi
komistarina
maniristoka
stanikarimo
mostikinara
karanostimi
makanostiri
kinimorasta
nistirakamo
rikostimana
stanokirami
stanikamiro
mostikarani
stiraminoka
naristikamo
rakamonisti
romakistina
mistinakaro
mostaraniki
kostaranimi
rikistonama
minakistora
rominakasti
nikiromasta
stokarinima
nistamorika
staraminiko
nastorimaki
rinomistaka
kanaristomi
nikorastami
stonakirima
rokamanisti
ranakistomi
rimakastino
makonistari
nakamistiro
kostirinama
mirastokani
kiromanasti
riminastoka
stiranikamo
mirakanisto
ramostinika
makostirina
kostaminira
karanimisto
kistiramona
kinastamori
stimaniroka
stanimikora
manakistori
nistomiraka
rakistimano
stamirinoka
nirakimasto
maristikano
makorinista
kiranastimo
morakanisti
namirokasti
monistakari
nistamoraki
kastimaroni
manastokiri
namokastiri
stimokanari
mokinastari
kamonirista
rimakonista
kimonarista
stomarakini
ranomakisti
stinamaroki
stimarakoni
rastominika
ranistomika
rikastonami
staromaniki
narikamosti
minokarasti
makoristina
nastomariki
kistonirama
ristamaniko
rimakanosti
mastikonari
narastokimi
nirastomika
romastakini
mostarakini
kirinamasto
stamikanori
kinaristoma
riminakosta
nimokastari
mikonastari
stanamoriki
stomakaniri
norakistima
naramostiki
storakanimi
rimastonaki
mikirastano
stinikamora
stinarokima
makanirosti
kastarimino
rinistamoka
kastimarino
rinomastika
kinistamaro
rikistanamo
mistikarona
kirostamani
rikostanami
kastiminora
kinostirama
ramokistani
kanimastori
nirakastimo
maranokisti
minastiroka
stamikonari
monakirasti
stinorikama
kimonistara
ristokanima
stikaminaro
kamanistori
rakastimoni
kastorinami
stanomikari
kistanaromi
nostarimika
stanakiromi
nostakirami
rimastokina
makorinasti
kiramostina
mironastaki
kastiramino
kanistamiro
kistominara
nostarikami
kinirostama
romikinasta
ramakinisto
stanimoraki
staranokimi
stamikorina
rinimostaka
kimastorani
rinostamika
ramikinasto
rinistakamo
rimikastona
nastirokami
nastarimoki
rakistonima
konarastimi
mirastakino
kanirostami
nostarikima
stimanikaro
nistiramoka
rakostinima
monikirasta
mastonirika
rokistamina
kamanostiri
rostiminaka
stanikomira
stirikamano
stinoramika
stonakarimi
kistoranima
rinamokasti
karistonima
stokirinama
mokinirasta
narikistamo
nakamirosti
nistiramako
nikamorasti
minokirasta
kamostinira
rakonamisti
rastokamini
stimokinara
mistonarika
rikostamani
kistanomira
mikistarano
nimakostari
ristokimana
manostiraki
kimironasta
ranimakisto
karistanomi
rimikostana
minaristako
stimanikora
mirakistona
stirimanako
nomikarista
kastinorami
nokirimasta
manastiroki
mokistirana
stanikimaro
marastikino
mastakiniro
kimistanora
rimastikano
nokistarami
nakistimaro
rinomakasti
mastirakino
mironikasta
riminakasto
kinistaramo
maniristako
ranokamisti
rikimanosta
storanikami
rakanimisto
kistaramoni
morastinaki
kiraminosta
karonamisti
nimistoraka
ristominaka
nistikamaro
rimonikasta
mikarinosta
kanirastomi
mikanistaro
kanorimista
rinikamosta
mistaronika
mostinakari
karastinomi
mostinarika
karostimani
rikamonista
kominarista
stamarokini
rikominasta
rikamanisto
kostimanari
storikamani
kistarinamo
morikanasti
manistakiro
nikiramosta
maristaniko
rakonimasti
stamonirika
noramistaki
stiromanaki
koristimana
kirostimana
karinamosti
nokimastari
stimirokana
konastarimi
mostaniraki
nokamirasti
rastomaniki
rastonimaki
mostinikara
miranastoki
mokastarini
mironistaka
kastominari
mikastirano
stinirakoma
ristokanami
namikirosta
namorakisti
stiromikana
raministako
nirastokima
stamanikiro
kamistorani
korinastima
ramakonisti
ramanikosti
nastarikimo
nastimikora
ministakaro
mistakaniro
namostiraki
nistarokima
nakoristima
stimakinora
rikanamisto
rimokastina
stiramokina
stimikonara
nakimostari
marostinaki
nimorastika
kinastiramo
mikaranosti
monikistara
koristanami
kastamorini
ranikimasto
nirastikoma
ristamokina
stinokamira
minorakasti
ranakimisto
nastakorimi
storakimina
rimanokasti
nomistarika
miranikosta
nirakistoma
mikaristano
stakaronimi
kastinomari
namikarosti
manokistira
stanirokima
karonimista
mikiranosta
stanikamori
rakonimista
ramonikista
nikastomari
rakanostimi
nistarakimo
mikanastiro
ristikanamo
stakimirano
karistinamo
monikarasti
ranamistiko
kanirastimo
rikanistoma
stimarinako
morastinika
minokastira
stomarinika
stiraminako
ranistimoka
narastikomi
rastimanoki
stinakiroma
stamikaroni
stakonirima
koristamina
kistoramina
rastokanimi
manokirista
ristamonaki
ronakimasti
rokiminasta
mirikanosta
kistorimana
stakoranimi
kirimostana
ranomikasti
nistaromika
miranistako
nakirostami
stiramokani
kimirastano
manikirasto
stinamikora
ranimikasto
rokimastina
kinostamari
nirastimoka
narimastoki
miristonaka
stinamakori
konastirima
kanomirasti
konamaristi
minarakosti
nakostimari
mokanaristi
mastiraniko
ramikonista
norikastima
nakastorimi
mostarikina
makistonari
ranamikisto
stoniramaki
minastirako
stirikomana
mistonakari
nimakirosta
ristimokana
rikastimano
rokamastini
rakamistoni
kinamistora
stariminoka
rastikamino
kamirinosta
kinamastori
stinamakiro
mistokanari
morinikasta
stirokamina
minoristaka
mikastorina
mastikirona
kiristonama
ristimonaka
noramastiki
stiramaniko
kanomaristi
kinamirasto
nirakomasti
stinamokira
kirastomani
manorastiki
makonirista
mikanorista
stakimanori
kanirimosta
kimastonira
kimorinasta
nirostikama
kimistonara
stinorakima
stanarikimo
rimakinasto
ramistanoki
nimarakosti
rakistamino
mistaniroka
nimistakora
kostaramini
rinokistama
kamistanori
kastiminaro
ramakostini
moranikasti
rakastimino
makinastiro
stakinamiro
nikimarasto
stiranomaki
ranistakomi
nakiramosti
nastamoriki
staromikina
rakostimina
mastinorika
maristonika
stinomakari
nomastiraki
stirakinamo
maristinoka
nomastikira
rinimakosta
morikanista
stiranomika
namistikaro
staronikami
ristamanoki
rimistokana
ronastimaki
rastikimona
rinakamosti
karimanosti
kiramanosti
nastimirako
rastikanomi
rikinastamo
ronistamaki
komistarani
kirastonami
konistimara
kirastimona
stonamiraki
ramanokisti
kinastorami
morastaniki
ronikistama
ramonastiki
minarikasto
mikanirosta
rikimastona
kimastaroni
rostinamaki
rinamastiko
rostanikami
nokistimara
mikistorana
rastinamiko
stamironika
rimakanisto
mastanikori
stinaromaki
mirakinosta
mikinarosta
stominakira
stirimanoka
rinastakomi
kanamirosti
naristamiko
nomarastiki
mastirokina
stamokaniri
rastinimoka
rakanistomi
karinostami
rostamikani
rostinakami
ramistokina
nokaristima
nakoristami
kanaromisti
kistamarino
nirokamasti
stamokirina
ristikamona
kastanimiro
rikonastami
nimastirako
starikanimo
mokistinara
kistamonira
nokiristama
kiramanisto
kirastamoni
stanokamiri
nastikimora
rastamoniki
nikostirama
konimastira
mikanaristo
rastakinimo
rokanamisti
stiminokara
marikanosti
nastokimari
nikomastari
rikimostana
nostaramiki
rastikomina
stimanakiro
narastikimo
mastinaroki
ronastamiki
stomarikani
kiranostami
starinokami
stamikirona
nomakastiri
stakiramino
nastamikiro
romakinista
stariminako
kimostinara
mirinakosta
nastimakori
rastakimoni
konaristami
stiramakino
stomanikira
namakirosti
mistiranoka
mikoristana
makinistaro
morinistaka
ristakinoma
marakistino
nimikastaro
kanimostari
kistanorima
narostimika
naristomaki
kirostanima
nastomakiri
namikostari
nostiramika
rikinamasto
mikastirona
karinostima
nikastorami
nimastorika
makanistiro
kistaniramo
nistiromaka
korastamini
kinorastami
marakostini
stokaminari
stinamokari
stiramikona
karastimino
kastaronimi
stanorimaki
ranakistimo
rastonimika
mistokinara
namikistaro
kiramostani
ramanikisto
rikanimosta
stonarimaki
stonarimika
stikamorani
stakinaromi
rimakostina
ristonakami
nastomiraki
kironastami
rakomistina
namarikosti
stikarimano
namirikosta
karinistamo
kistanamori
ranimikosta
konarimasti
kimarinosta
kiminarosta
mikinarasto
koramastini
stinoramaki
rastakimino
rominastaki
rikaminosta
karanomisti
nakimistora
namokaristi
stikoranami
stimorinaka
komirastina
makarostini
komiranista
norastamiki
kirastamino
mistakirona
stokiminara
stonamikira
kimostirana
stakaminori
stirokinama
marastiniko
rikonamasti
ramonakisti
rikamanosti
kirastomina
stonarakimi
kiramistano
korimanasti
morakastini
karinomista
korinastami
stominaraki
ronikimasta
ramakinosti
nakaromisti
komanistira
rakistimona
mikonarasti
nastamiroki
kiristanamo
mastorakini
nirimokasta
stonimakira
stirokamani
konamastiri
stakiminora
namostariki
romanikasti
stokarinami
namikirasto
minastakiro
nokamastiri
nokistirama
mastinikaro
mistakinora
narikostima
rastimonaki
kinastorima
rastimaniko
mirakinasto
stikiramona
rastanikomi
nostimaraki
rinomakista
rinikostama
kamarinisto
kiminorasta
mostanikira
rimastinoka
mikonarista
nastamikori
noristikama
kanomastiri
staminirako
kamironasti
narikistoma
kiniramasto
starominaki
narokastimi
ramostikani
kaminarosti
nirastokami
storakimani
nostarimaki
komastaniri
staminikora
stirinamako
manarikisto
minirakosta
koniramista
kanistiramo
nikastarimo
makistinaro
staronamiki
nastikimaro
kostamirina
kanamostiri
makonistira
rokinastima
kanimostira
stokanamiri
nimostarika
stakorinima
staranikomi
monaristaki
mastirinako
stamiranoki
miristokana
rostimikana
mistanakiro
mikanarosti
mistaranoki
minakorista
minarastiko
ristakomani
manistokari
stinimarako
stamorinaki
stonirimaka
kariminasto
rikomastani
kiristomana
mikinostara
makistaroni
ristakimano
minirastako
ristamakino
starimokina
ramistikano
stikomanari
storakamini
stinarimoka
nistakiroma
karistinoma
morakinasti
ristimakona
romastinika
stikiromana
kamonastiri
mistakorani
stimanoraki
rikastamino
stomakirani
riminastako
kinomarista
kanostimari
nirostimaka
kanoristami
rakostimani
manirastiko
nimostakira
kinastomari
rimokinasta
rinistakoma
nastimoraki
rastikamoni
kistamanori
ramistonaki
stikonamira
kamonistira
nirikomasta
kanarostimi
stomarinaki
stinamorika
stinarokami
kinamostari
starinamiko
nomistikara
nakaristomi
ministakora
kamastoniri
starikomani
kamastinori
ristomanika
mokinistara
stakanirimo
manikostira
minostakira
marinistoka
stanokimari
kimastinaro
miranostika
stonikarami
stikomanira
nastakirimo
nistamirako
narokamisti
nakomaristi
mirakastoni
staminiroka
stamanoriki
narikamisto
mirinastoka
mikanostari
makanoristi
koraminasti
kamistinora
nostakimira
mastirikona
stanokirima
kimarastino
mastokirina
stimakanori
kanamiristo
nomaristaki
kastoramini
nakirastimo
mistinakora
stirokimana
maronikista
rastinomika
nokamirista
rikastanomi
maronistika
narakimosti
minarikosta
kistironama
nistimarako
stikinaroma
marikinasto
raminostika
ronakamisti
manastoriki
nakimorista
stonakirami
starakonimi
nastirimako
rostamakini
mostiranaki
kirimanosta
nimarikosta
koranimasti
rastomikani
mistironaka
rokamistani
rakostamini
kimarostani
rimakonasti
mastikorina
rinikomasta
karistamino
ramistokani
nimastariko
nakiromista
morikinasta
stinaramoki
ranakimosti
kamoranisti
storamakini
monarakisti
stiranokima
stamikaniro
stakinorami
stirimakona
nostakamiri
raminikasto
stimikarano
rinastakimo
manirostika
nistikomara
nirakostami
ramikostani
mistikonara
stanomiraki
kirostanami
marinokasti
stonimikara
nikoramista
komistirana
makironista
nistomaraki
nakimaristo
nikamarosti
nakiramisto
morastikina
rimanikosta
rinakomista
kanimarosti
mikonistara
storinikama
nirokistama
rastinikamo
namokirasti
kaminorasti
stimirakona
minakistaro
nomiristaka
kiranostima
mokaranisti
rastonamiki
nostirikama
nastirakomi
stamonikari
monarikasti
makaristino
nastokamiri
stimorikana
romastikina
moranastiki
rostinimaka
ramastokini
mokiranasti
nakostirami
stirikamona
ramokistina
namastiroki
makistorani
kastarinomi
rimikanasto
minorastaki
rakinastomi
kistarinoma
staminakori
komiranasti
ranikistamo
rinokamista
kaminostira
rakastinimo
stikamonari
ranomistika
kanostirima
nimakirasto
nastirokima
makinistora
narimikasto
rakistomina
rikastomina
mistarinoka
ranistikoma
stikonarima
namastikiro
nistokamira
namokirista
nastarokimi
kimonastari
stamirikano
manokaristi
rastikinoma
niristakoma
ramastikoni
stimarokina
marinikasto
stonikamira
kastironima
rostikamani
stirakinoma
stiminaroka
kanoristima
stiramonika
stirakamino
stikanarimo
nikistomara
stamirakino
karamistoni
kostanimira
komistanari
stikaminora
kinomistara
karamonisti
mastanoriki
stimakaroni
kiristamano
nimokirasta
kanirimasto
ranistamoki
karimistano
monarikista
norikistama
rinakastimo
makorastini
stanorakimi
staminikaro
kistanamiro
rimokistana
rakistinamo
kiromanista
nimistokara
nostimikara
kimastirano
starokanimi
kiristanoma
ranostamiki
ristaminoka
stikaramoni
rakimostani
nimostiraka
ranimostika
rikonamista
stonimarika
mistikanora
narastimiko
nimastakori
mokirastani
stikonirama
nistamokari
ristamikona
narakistomi
monikastari
rostakimani
kanastomiri
kastanimori
mastoniraki
rakastonimi
staromakini
kastirimona
makonirasti
rakamostini
stakamirino
mirokanasti
kimaronista
stinokamari
mikostirana
stikamirano
minarostika
kanistamori
mirastikano
nirikastamo
stanimirako
kanimistora
kistimanora
minastikaro
storinakima
rimakistona
stinarakomi
kimoranasti
morinakista
rimanastiko
stikoramani
makinastori
mikonirasta
raminastiko
nostirimaka
kamaristino
stanakirimo
rinimakasto
ristakamoni
stanikiroma
mironakasti
stokinamira
norimikasta
rikamonasti
stakinimaro
mokiristana
nimastokari
rokistanami
stinimoraka
ristamikano
ramistakoni
storakinami
kaminastiro
mostikanira
nikastiroma
stakinorima
kinomastari
mastironaki
kimostarani
starinimoka
nikamirasto
stakimirona
stimoranaki
morinastika
starakomini
stamokinari
nostikarima
noristamika
stironamaki
kiranistoma
miranastiko
mastikaniro
kirominasta
marikistano
mastaniriko
minirakasto
nomistiraka
stomikarani
nostakirima
stakimonari
stamonikira
nakimirasto
nikaromasti
stikaromani
kostimirana
kimoristana
nastirakimo
starakimoni
stironakami
karinimasto
rastonikima
mostanakiri
stominikara
nimikastora
kastiromani
mironastika
stokinimara
makistirona
kastimirona
nokistamari
narimakosti
narikomasti
kamaristoni
nistamikora
ronimastaki
ristakanomi
niramakisto
monarastiki
rimostikana
minastorika
kamiristona
rokanimasti
mokistarina
stokaramini
kimorastina
kastimaniro
kiramonasti
starikimona
konaramisti
norakistami
mikirostana
nikorastima
ranistakimo
mokanastiri
konirastami
stinimokara
norikimasta
ranostikami
rominastika
nimastaroki
ranistokima
stimikarona
nakostamiri
mikarinasto
kirimastona
stokiramani
stakanomiri
stanikorima
makaronisti
kinamirosta
starimaniko
marostinika
kaniristoma
komiristana
karistimona
noramistika
stirakimona
stanamokiri
mastikinaro
ristakanimo
marokinasti
stanimokira
niramokista
stamikinaro
nastimakiro
kistonamari
koranastimi
stikimanora
nokaramisti
stanokimira
nastaromiki
ristimakano
kistimarano
makostirani
rimastaniko
manistariko
manikastori
ristinomaka
komaristani
niromikasta
narostikima
kimistorana
kostanirima
ramikanosti
manistokira
maronakisti
mirokistana
kostimarani
ristanokami
ramikistano
karimastoni
kostanimari
namirikasto
kamiranosti
komastinari
storakinima
karonimasti
kinamostira
nomakaristi
marastokini
kimostanira
kamirostani
nistakorima
rinimokasta
nastirimoka
namaristoki
kistomanari
rostimanaki
mistakinaro
kastaromini
namistorika
mostakinira
mistaraniko
nastokirima
rakaminosti
moristakina
mostanikari
kistinamaro
mistokirana
ristakomina
nistikaroma
romistinaka
maristanoki
rokanistami
stanoramiki
mikistanaro
stiramikano
stokimanari
romikanista
maranikisto
mastokinira
komanaristi
staminokira
rinakimasto
monastikira
makoranisti
kinastamiro
monakistira
manistaroki
nokimarasti
narostakimi
stamorakini
ristonamaki
nikarimosta
nistimakora
stikominara
mastarinoki
kimanarosti
nikostarima
namikastiro
rokastinima
miristakano
kaminastori
staminokari
nikamaristo
nostikamira
kiminastora
makiristona
kaminostari
norikastami
stinomikara
mistanokari
mastonariki
stanokarimi
stikamarino
namostikari
mikaristona
rinastimako
narostamiki
ronistikama
kastamirino
mistinoraka
makastorini
stakominira
mistanakori
kanastiromi
kamaniristo
mistinokara
mostanariki
nakistimora
mostinaraki
naramistoki
manirakisto
kimarinasto
kistomanira
stanarimiko
kastonirami
stakiromani
rokimanasti
kimostanari
rimostakina
kanomistira
komarastini
rostanamiki
minarokasti
mistakarino
rinakomasti
karamostini
narimistoka
nomikistara
stimorakina
niromastika
mastokinari
staranimoki
romakanisti
stakinimora
namirastoki
stimaronaki
kinomirasta
mikaranisto
storinamaki
stimanariko
nastikiramo
stakonarimi
kimaristano
ronamakisti
kistinomara
rakinamisto
namirostika
kaminaristo
rikonimasta
kamarinosti
nomikastira
stanorimika
nikostamari
nistikorama
stakamoniri
stamirakoni
kastorimina
namastoriki
ronamikista
kastirinoma
rakistinoma
monirakasti
kiranamisto
nakirastomi
mokaristani
kanarimosti
namarikisto
kanastirimo
stiniramoka
kostarinami
nirastamiko
rastikonami
ramokinista
nirokastami
kiromastani
mikanistora
rikostanima
stinikamaro
mastorinaki
minakastori
rastominaki
ristamonika
ranastikomi
kanistomari
ranimakosti
mikistonara
storamaniki
nastimiroka
minakarosti
stinikomara
mistakonari
stinamirako
ronamistaki
kostamarini
rakanomisti
stomakarini
storanakimi
namorikista
rinamikasto
nikaristamo
kastinamori
minakirasto
namiristako
stamarikino
stikinomara
konimistara
kistaranimo
kistanarimo
nistakarimo
nirostakami
rinamikosta
norastimika
stikomarina
kirastanomi
kostinamira
kimistanaro
stakimaroni
nakomistari
kirinomasta
mikinastora
kamironista
namirakisto
rokanimista
nimistaroka
ristakamino
kanimirosta
stomikanira
ristanimoka
ramakistino
minikastaro
nostirakami
nistakomira
mirakanosti
namirokista
ranakomisti
nikiramasto
norastimaki
kamirinasto
kinarostima
rinostakima
konastimira
mikonastira
kostiranami
naromistika
nistamariko
rikomastina
kominastari
stinakiramo
manarikosti
kirinastoma
stinirokama
rastanimiko
mistarokina
ranikastimo
mastinariko
stinamiroka
mirakistano
koranamisti
nikamastori
stonamariki
marakonisti
mirostikana
ristakonami
kostiranima
nirastakomi
nistorimaka
manarostiki
mastorinika
kimorastani
starinikamo
mirostanika
nakistorima
stamakorini
nastikamiro
stiromanika
kimanostira
nimorakasti
rokimanista
mastikinora
starakimino
kastaniromi
ronimastika
mostakinari
mastiranoki
nimistakaro
rokimistana
monirastaki
mistonikara
starikonima
rinakostima
korastimani
raministoka
starinakimo
nomastikari
stinamariko
ristimanoka
miranistoka
stinakimora
stikanorima
namistirako
kinistorama
kanastimori
namarokisti
kistanomari
starimikano
niramikosta
kastamoniri
mikanorasti
rakimonista
rinikastamo
stikarimona
nikistamaro
makinorista
kinimastora
romistanaki
rimakinosta
nimistarako
mirostakina
romakastini
kamanistiro
nimirastoka
kimonarasti
rimistakano
mistarakoni
namaristiko
kostirimana
karanistimo
kanimistaro
rostanimaki
rinokimasta
nirakomista
stimanokira
stinokarami
nikarimasto
stikaranomi
nirikostama
morakistani
stinakimaro
rinakamisto
mistonakira
mokistarani
ramistinako
rastokimina
makiranisto
ramostikina
kamastorini
norakastimi
rikonistama
nimakorista
stakanorimi
mastonakiri
mostirakina
nimikostara
rinakastomi
mastoraniki
nimastikora
ranimokasti
koristamani
stanamiroki
niristokama
rimastakoni
mistarikano
nistamokira
rikastinoma
rostikinama
nimokistara
rimastonika
ristikonama
mistarinako
marinakisto
rakiminosta
mikostanira
stamakiniro
nirostakima
nomikastari
starikinamo
kariminosta
koramistina
stomikirana
kanarimisto
kaniristamo
mokanistira
stikarinamo
kastanomiri
kanimastiro
mastakironi
rimikanosta
nomistakira
stanakomiri
stikamorina
nostiramaki
ramikostina
karonistami
rimonastika
ramastikino
namistoraki
starominika
niramakosti
mostikanari
nastikorami
naromakisti
stamikinora
nirimostaka
stimakirona
stamoniraki
rokinimasta
ranikastomi
manakoristi
monastirika
mastakorini
rinimastako
narakistimo
kinaristamo
ramikistona
naristakimo
mirastonika
rimostinaka
stokimarani
rastinikoma
konaristima
nistorakima
ranastomiki
kimanirosta
stokiranami
nistikamora
mikastanori
stikoramina
marikinosta
stikaniramo
kistiramano
manoristika
stonikarima
nostakarimi
stamironaki
ristomakina
stimanaroki
rakinomista
nistarokami
rostakimina
stamanikori
mikastaroni
stiramakoni
mastikanori
manostikari
niramokasti
mirikastona
stanirimako
manikaristo
ramonistika
rinamistako
ristanikoma
kastiniramo
stakirinoma
nastiramiko
stimaraniko
nikarostima
marokanisti
stinaramiko
stimarikano
manikorasti
kastamironi
kistoramani
narikostami
ronamikasti
kostamaniri
narimokista
stominiraka
mistikorana
starinokima
namostikira
mistinaroka
kanamistiro
stakiminaro
konimirasta
starokimina
nirastikamo
kironimasta
rakinimosta
ramikinosta
kinaromista
narakomisti
kimastorina
stimakirano
koristanima
narimostaki
mastiniroka
staronikima
nakiromasti
stonikimara
monakistari
ronistakima
miranokista
stirinakoma
namastiriko
nokimarista
manorakisti
manostikira
mastikirano
storimikana
rimastokani
mistakonira
stanikomari
rakinistamo
nikostamira
stonimakari
mostirikana
rokinamasti
stakiromina
namistakori
stomirakina
stinakamiro
ramokinasti
kaminirosta
kinamorista
kinaromasti
stikironama
minastaroki
kistamaroni
karostamini
namokistari
nomarikista
marostakini
norimastaki
stimokarani
stinarikoma
rinamostaki
stikamanori
nistokimara
kistaminaro
nimokarista
stinakamori
kanaristimo
maristokani
stokanirami
kanimorista
nimokarasti
kimostarina
namikaristo
karastimoni
ranamistoki
starikonami
komaristina
ristikamano
manirakosti
stakaminiro
romanakisti
rastimikona
minakorasti
storamikina
kastomirina
stinimakora
nistirakoma
kamaronisti
manikirosta
starinakomi
narimikosta
stakanimiro
nostamiraki
nakomastiri
nakorimista
stonakimira
nokastimira
nikamorista
stimonakari
kastimonari
stinamoraki
minostarika
ramanistoki
manistirako
kanistaromi
nomikirasta
maranikosti
koraminista
stanomakiri
nastakimiro
mastinokira
rostinikama
stokaranimi
ristakimona
ranimokista
rostimakina
karanimosti
kistinaramo
kamostirani
ranokimasti
nirakamisto
kistinorama
kanirostima
ristamakoni
makiranosti
manakostiri
kimarostina
nostakimari
rikonastima
naramikosti
monistakira
nimirostaka
starakinomi
stanirakomi
mokastirina
nirakamosti
nirimakosta
nirimastako
marikanisto
rimistakona
rikostamina
morastikani
ristanamoki
minokarista
rastakomini
mistirokana
makistorina
kanimorasti
nakimastori
stiranimoka
kastonamiri
mistirakano
komistinara
stimakaniro
kinimastaro
kinirastoma
stamikarino
stanorikima
nikistamora
nikoramasti
makistarino
ristinokama
stanimokari
namistokira
kistamirano
kimaronasti
nomirastika
kastaminori
kominirasta
mikaronista
nimakarosti
stikamaniro
mostanirika
stiminoraka
rostikimana
mistakaroni
rastanomiki
ranimastoki
ronastakimi
nostikarami
kinoramista
nistomakari
stomakirina
mastaniroki
kinaramosti
mastikaroni
stonarikima
stanarimoki
manakiristo
namikostira
koranimista
kistiranamo
kirimanasto
makonastiri
ramakistoni
nokastarimi
mokinarasti
kistaronami
namokistira
mistiranako
nistomarika
rinastikamo
storimanika
stimakonira
kimastonari
nistorakami
nostimarika
mostinakira
mikastinaro
manistoraki
nikaromista
stironimaka
rastonikami
rastomakini
rakastinomi
makastirino
kaministora
nakastimori
manikostari
narakostimi
marinikosta
nakimastiro
staniromaki
stikarinoma
nakistamori
kistamirona
stakomirina
namiristoka
naristakomi
rastikanimo
kistimorana
minorakista
stakonimari
stikomirana
romistanika
mirastakoni
nistirokama
rikanostima
rinakistoma
ramastiniko
nomastariki
rikinamosta
stanimakiro
mikistanora
minakostira
stokiranima
minokastari
karonistima
mistanokira
staranimiko
kistonimara
koministara
rikistamona
monistaraki
kastonirima
nirikastoma
kirimonasta
mikarostani
nikirostama
komaranisti
nakimostira
kastinorima
naristimako
kamistinaro
ronamastiki
monastikari
minarakisto
korinamasti
stikamirona
kinamastiro
nakomistira
stirimokana
makistinora
nakimarosti
namostakiri
nakastimiro
mostakirani
karomistani
kinamarosti
staniramoki
maristakoni
kimastarino
norimastika
nirakimosta
morinastaki
rikimonasta
ranistokami
kamiristano
namorastiki
kanorastimi
korastinami
niromakista
morikastina
kastarinimo
nirakistamo
nirimastoka
kirastinamo
makastironi
minikarasto
stimarikona
mistokarina
mistinarako
konistarima
kamostirina
konamirasti
staramokini
stinirakamo
stirakanomi
rastinokima
norimakasti
manikastiro
nikamistora
kinarostami
rokastinami
karomanisti
nimastokira
roministaka
ristimanako
rinostakami
nomaristika
mastariniko
storinimaka
manostakiri
ristakonima
kistimarona
rikamostina
mikinorasta
nokarimasti
stomakinari
stinikorama
stikaramino
rinakostami
konirimasta
kiramonista
stamariniko
nakarimosti
rokastimani
ristanikamo
rikastimona
nikaramosti
rostanimika
romikanasti
kinastomira
komanistari
mastinokari
korinamista
ranomastiki
rinamastoki
kirinostama
marikonasti
kamistorina
rikamostani
romanistaki
namakostiri
kamistonira
mastikonira
stinorakami
namistikora
nokimastira
namikorista
manakirosti
ristanokima
nostamariki
makinorasti
starokinima
stomiranaki
maristonaki
stirakonami
stakomarini
stakomirani
nokaristami
ristokamani
norastikami
rakimostina
rinamokista
rakominista
rinastikoma
staranomiki
kastorimani
mistirakona
ranimistoka
rinakistamo
kastonimira
mirostakani
kostinarami
minirastoka
rostakinami
stakinomira
makostarini
nimirokasta
stinikaroma
mistanikora
stakimaniro
stirakonima
ramikastino
nakamiristo
ranokastimi
ranostikima
rakistanomi
rakominasti
stonikirama
makistanori
manirokasti
nomastirika
mastinikora
nistarikamo
narikimasto
mirastokina
nikamostari
makirinasto
kostaminari
moristinaka
ristomanaki
kastimorani
rakinomasti
rikomanista
stamorikani
monaristika
kanastorimi
stamaniriko
stanomariki
mokistanira
rakimonasti
starinomika
kistiromana
ristonamika
stonaramiki
rikinostama
kostinarima
konamirista
nimastikaro
ronimistaka
nastorimika
kironistama
kiniromasta
nikistaramo
niramastiko
stinakorima
karistonami
nistimokara
korinimasta
nikomarasti
kiminarasto
mastinakiro
manostirika
mikironasta
rastokinami
narimastiko
stamaroniki
rimokanasti
ranastikimo
karastomini
mirokastani
manirikosta
nikamirosta
karimonasti
komanirista
mistonaraki
monastakiri
stonamirika
nomikarasti
kistaminora
maronistaki
stanimiroka
stiminakora
stakorimina
nimakaristo
nimarikasto
nirastamoki
mistokanira
stikamaroni
nakorimasti
kastimirano
komastirani
stamikorani
minikorasta
nastoramiki
marinostika
romastikani
kimiranasto
manikistaro
kiramistona
kastinomira
minirokasta
storimakani
kironamista
mostiniraka
nimostikara
mostirakani
nistakimaro
kistamonari
maristikona
ronistamika
stakamironi
kistomirana
nistoramika
rikistamano
nokarimista
maristinako
kastonarimi
rostanikima
kiranastomi
rastimikano
nikomastira
stanamiriko
marinakosti
rakaministo
manarokisti
rimanastoki
nirakostima
karimostina
stokanirima
nastarimiko
kanostamiri
nistarimoka
naromastiki
mikirastona
kanamistori
mikarostina
ramokanisti
nimirastako
marinistako
kinirastamo
mokirastina
niristamako
rakimastoni
stikanorami
riminokasta
nostikimara
norakamisti
stirakanimo
narakimisto
kinostimara
nakistomira
stakiramoni
kimanirasto
ranikamosti
mastinoraki
rostanakimi
nastikiroma
marostaniki
nakirimasto
nokiramista
rastimonika
stikanaromi
stimokarina
stakonirami
stakiniroma
noristakami
kimanorista
romastaniki
makirostina
kimanaristo
stinarimako
namikastori
stakimarino
stirinamoka
rokistinama
maristokina
nistakorami
stikiramano
nistikaramo
ristanakimo
makaniristo
naromikasti
mastarikino
romistakina
stomikanari
rakistonami
nakostirima
starinamoki
starinomaki
marokastini
stominakari
korastanimi
kirastanimo
romanistika
nirokimasta
minikarosta
ranostimika
stikonarami
namastikori
namakistori
manokastiri
mostiranika
nokastamiri
mistorinaka
nimakistora
ramikanisto
nakimirosta
rimakastoni
rastonakimi
monirastika
nimirakasto
nimastoraki
kanistomira
stakonimira
makirinosta
stinakorami
rinastokami
stanirikamo
miranakisto
ranostakimi
stanamikiro
namirakosti
ramanistiko
manikarosti
nikastiramo
rastimokani
noristamaki
nimikarosta
nakastomiri
kinarimosta
ronastikami
stiromakani
karimanisto
rastinimako
konimarasti
kimastirona
niramistako
stimakonari
nimarostika
rastamikino
rakonastimi
kastominira
minirostaka
kamirastoni
makinaristo
nimirakosta
starimokani
rokistamani
nimaristoka
stiranokami
ramastoniki
stokamirina
makinirosta
nikoristama
marakistoni
rinostikama
makarinisto
kaniromista
niramikasto
nirakastomi
ristakinamo
nokastimari
ristonikama
minorastika
stakarimino
kistonamira
mokaristina
rastikomani
ristaminako
rakonistami
kistoranami
rokinistama
rakimistano
stonikamari
rokistimana
ranokimista
starikamino
mistaronaki
nistokamari
nistakimora
kanastimiro
karimistona
stokimanira
noristakima
kimanostari
stomanariki
kamonaristi
nistorikama
stanirikoma
mastirinoka
mirikostana
niramistoka
staminariko
nakamostiri
kamanirosti
namirostaki
korastinima
mokistanari
nokistamira
stikanimora
ronakimista
mostakirina
raminokasti
mikinastaro
rostamikina
stakirimano
kistamorina
manorikasti
rinamistoka
nokamaristi
narokistima
karistanimo
kistanimora
minorikasta
rokimastani
monakirista
nikirastoma
stimonakira
minokistara
rastimakino
rastakonimi
korimistana
ristokamina
stinomakira
niristamoka
norikamista
kostiramina
rakanistimo
mokastinira
kamonistari
mokanistari
kinimostara
stokinirama
ranikomasti
kirastonima
nakostarimi
stamokinira
rakomanisti
nakamistori
kastinamiro
ronakistami
mastarokini
stikaronami
rikimanasto
kiromistana
namistokari
rakinamosti
rimanostaki
stoniramika
stinomiraka
nakastiromi
starimonaki
norakimista
stikorinama
kinaramisto
karinistoma
mikostarani
nastamokiri
namikorasti
stirokanami
rostaminaki
maranostiki
nakomirista
kistonarami
rimostanaki
nistaramiko
stokinamari
nikarostami
kinarastimo
minakastiro
nikomirasta
rokastamini
niristakamo
konamistari
nimarokasti
stimirakano
rastamikoni
stirakomina
stamiraniko
namikistora
kastiramoni
kinostamira
staronakimi
rikamastino
mistoranika
stikinaramo
minostakari
rimanakisto
stikonamari
rastimakoni
stanarikomi
nikostarami
konistarami
karimostani
nikastorima
mokastaniri
kamarostini
starokinami
rinistomaka
ramistinoka
stimanirako
kinastimaro
konistamari
kinoramasti
stimarokani
nikimastaro
stamakirino
ranimastiko
kanostarimi
kostimanira
monastariki
rastakinomi
rostinakima
rimikastano
kironastima
rastikonima
rastiminoka
mastokarini
karastonimi
marokistani
ronikamasti
nostamikira
stanikorami
kamostaniri
norastikima
kaminorista
nistaromaki
stonimiraka
stanirimoka
mostakarini
manirastoki
stonirakima
rikamistano
stakiniramo
nikamastiro
mistanoraki
storanamiki
rinastamiko
nokastirami
noristimaka
kiramastoni
nikamostira
stomanikari
kimastinora
starikimano
mistanirako
stamirokani
minarastoki
komirastani
makinirasto
nistakamiro
stirokanima
stiminarako
nastiromaki
nastikarimo
kastirimano
nikastaromi
stimokirana
nastikorima
mokanirista
nimarostaki
kinastarimo
nokiramasti
morinakasti
nakistiroma
stanimorika
nakorastimi
starimanoki
kirinastamo
stimanokari
nirimakasto
stimarakino
kamonirasti
stokaminira
stinakarimo
ranikistoma
rikimastano
komastirina
karinastimo
nikaristoma
kanoramisti
mistorikana
kistaromina
nastakiromi
nakostimira
manistiroka
stirakimano
nikastamori
nastomirika
stiranakimo
mastikarino
mastarikoni
stikimorana
monastiraki
stinaromika
minarostaki
ranimostaki
kamastironi
rimonistaka
nastomikira
kostamirani
maristakino
storanimaki
nistimaroka
mirikonasta
nistarikoma
nistakomari
nikaramisto
ramokastini
kanomistari
manoristaki
stinakomari
nikomistara
stikanomari
romakinasti
moristanaki
kiranamosti
nimokastira
kistaniroma
rastiminako
kaministaro
rakastomini
storikinama
marikostani
kimanastori
kimanorasti
nastikomira
romanikista
kastiranimo
rinamakisto
kaminirasto
mirakostina
kiniramosta
mastorikani
mironakista
noramikista
ronimakista
stanorikami
kanomirista
kastomaniri
rastokinima
kistomarina
naristimoka
nakimorasti
kamorinasti
ranastimiko
rimistanoka
nostikamari
nimarastiko
ranokistami
morikastani
monistikara
nistomakira
mastanokiri
nomirastaki
nakirimosta
rinastomika
mikoranista
narikimosta
miristakona
kostarinima
mikistarona
karostinami
rakistanimo
narostikami
mikastorani
mirokastina
rimastikona
monikarista
storinamika
stonimaraki
stinamikaro
stamanokiri
namistakiro
mokarinista
mirastinoka
mastironika
ministarako
kastomarini
nakistorami
mirinokasta
kamostinari
nirastimako
stikaniroma
morakistina
kistorinama
mastonikari
rastikinamo
rikanomasti
rakinimasto
mistanaroki
karinomasti
mokinastira
kinistaroma
niromakasti
karostinima
niromistaka
rimanistako
stimoranika
kastimonira
storimanaki
manakistiro
ristanimako
ranakostimi
nakistomari
stikanimaro
ristamokani
mastaroniki
nastokimira
koniristama
karaministo
nimakastori
rikastinamo
stakinamori
stamirinako
nirostamaki
mastikorani
nakimistaro
manistikaro
konimastari
nistakamori
makiristano
manistikora
kinamaristo
stikinamora
kastonimari
rakonistima
kinastaromi
karimonista
riminostaka
nistoramaki
starinimako
nistarimako
manikorista
raminakisto
mistanikaro
ranistikamo
stikinorama
nikimostara
kominastira
rastanimoki
nimaristako
maronastiki
narikastomi
kistarimona
karinamisto
nastimariko
ramikastoni
ramostaniki
stokirimana
nastarikomi
nostimiraka
stokiramina
storimakina
miranikasto
kanamoristi
kastoranimi
kimaranosti
kastiniroma
nastakimori
stakimorani
stikonimara
minakaristo
mirikanasto
mastinakori
kamorinista
kanostimira
makaristoni
nikimastora
kostanamiri
kastinaromi
rokinastami
stamikirano
nistamakori
nimikorasta
nakarostimi
mastokaniri
stokimirana
narostimaki
minakostari
nokirastima
kostiramani
-> 3600
*/
