// Exporting 218 snippets on 230828_221735
//:--[78531.339999958]
[ '/code', "\\tokyo.envir.stopSynths" ]
//:--[78565.111445833]
[ '/code', "\\tokyo.envir.stopSynths" ]
//:--[78565.1116615]
[ '/code', "nil @>. tokyo \\amp" ]
//:--[78565.111777791]
[ '/code', "nil @>.corfu \\amp" ]
//:--[78565.111913375]
[ '/code', "nil @>. tokyo \\rate" ]
//:--[78565.1119955]
[ '/code', "nil @>.corfu \\rate" ]
//:--[78565.112065041]
[ '/code', "nil @>. tokyo \\vol" ]
//:--[78565.112128708]
[ '/code', "nil @>.corfu \\vol" ]
//:--[78576.92874275]
[ '/code', "\\corfu.envir.stopSynths" ]
//:--[78587.988809541]
[ '/code', "\\tokyo.envir.stopSynths" ]
//:--[78587.988989458]
[ '/code', "nil @>. tokyo \\amp" ]
//:--[78587.989084875]
[ '/code', "nil @>.corfu \\amp" ]
//:--[78587.989174]
[ '/code', "nil @>. tokyo \\pos" ]
//:--[78587.989256416]
[ '/code', "nil @>.corfu \\pos" ]
//:--[78587.989327791]
[ '/code', "nil @>. tokyo \\trate" ]
//:--[78587.989401291]
[ '/code', "nil @>.corfu \\trate" ]
//:--[78587.98947825]
[ '/code', "nil @>. tokyo \\vol" ]
//:--[78587.989537541]
[ '/code', "nil @>.corfu \\vol" ]
//:--[78594.05350425]
[ '/code', "\\corfu.envir.stopSynths" ]
//:--[78598.4077095]
[ '/code', "'corfu'.envir play: ( 'vol': 1, 'endframe': 5466047, 'buf': 'yangdrums', 'selectionNum': 0, 
  'startframe': 1781526, 'playfunc': 'grainfroth', 'trate': 0, 'pos': 0 )" ]
//:--[78598.413340375]
[ '/code', "nil @>.corfu \\amp" ]
//:--[78598.413419791]
[ '/code', "nil @>.corfu \\pos" ]
//:--[78598.41347375]
[ '/code', "nil @>.corfu \\trate" ]
//:--[78598.413527875]
[ '/code', "nil @>.corfu \\vol" ]
//:--[78622.045578125]
[ '/code', "nil @>. corfu \\pos" ]
//:--[78622.045700541]
[ '/code', "nil @>.corfu \\pos" ]
//:--[78623.960587375]
[ '/code', "{ \\x3.sr.lin(\\lo.kr(0), \\hi.kr(1)) } @>.corfu \\pos" ]
//:--[78636.06003725]
[ '/code', "nil @>. corfu \\trate" ]
//:--[78636.060162916]
[ '/code', "nil @>.corfu \\trate" ]
//:--[78638.694830583]
[ '/code', "{ \\x4.sr.lin(\\lo.kr(0), \\hi.kr(1)) } @>.corfu \\trate" ]
//:--[78687.987941708]
[ '/code', "'tokyo'.envir play: ( 'selectionNum': 0, 'ampctl': [ 'tokyo', 'amp', 1, 'off', 0, 1, 'lin', \"x.lag(1).exp(500, 1000)\", \"(1 - z.lag(1)).exp(500, 1000)\", \"(x + y + z).lag(1).exp(500, 1000)\" ], 'startframe': 283138, 'trate': 0, 
  'pos': 0, 'player': 'tokyo', 'vol': 1, 'endframe': 2125398, 'buf': 'bird_crickets', 
  'paramctl': ( 'vol': [ 'tokyo', 'vol', 2, 'cx', 0, 10, 'lin', \"(x > 0.5).lag(1)\", \"(1 - z.lag(1)).exp(500, 1000)\", \"(x + y + z).lag(1).exp(500, 1000)\" ], 'trate': [ 'tokyo', 'trate', 1, 'z', 0, 1, 'lin', \"x.lag(1).exp(500, 1000)\", \"(1 - z.lag(1)).exp(500, 1000)\", \"(x + y + z).lag(1).exp(500, 1000)\" ], 'pos': [ 'tokyo', 'pos', 1, 'x', 0, 1, 'lin', \"x.lag(1).exp(500, 1000)\", \"(1 - z.lag(1)).exp(500, 1000)\", \"(x + y + z).lag(1).exp(500, 1000)\" ] ), 'playfunc': 'grainfroth' )" ]
//:--[78687.994656416]
[ '/code', "nil @>.tokyo \\amp" ]
//:--[78687.994795]
[ '/code', "{ \\x1.sr.lin(\\lo.kr(0), \\hi.kr(1)) } @>.tokyo \\pos" ]
//:--[78687.996484416]
[ '/code', "{ \\z1.sr.lin(\\lo.kr(0), \\hi.kr(1)) } @>.tokyo \\trate" ]
//:--[78687.998083541]
[ '/code', "{ var x; x = \\x2.sr; (x > 0.5).lag(1) } @>.tokyo \\vol" ]
//:--[78768.276079]
[ '/code', "nil @>. corfu \\vol" ]
//:--[78768.276223875]
[ '/code', "nil @>.corfu \\vol" ]
//:--[78770.57679825]
[ '/code', "{ var x; x = \\x3.sr; (x > 0.5).lag(1) } @>.corfu \\vol" ]
//:--[78806.710109208]
[ '/code', "{ \\z4.sr.lin(\\lo.kr(0), \\hi.kr(1)) } @>.corfu \\trate" ]
//:--[78810.111064333]
[ '/code', "nil @>. corfu \\pos" ]
//:--[78810.111213875]
[ '/code', "{ \\x4.sr.lin(\\lo.kr(0), \\hi.kr(1)) } @>.corfu \\pos" ]
//:--[78875.842787]
[ '/code', "\\tokyo.envir.stopSynths" ]
//:--[78896.198960291]
[ '/code', "\\tokyo.envir.stopSynths" ]
//:--[78907.23954475]
[ '/code', "'tokyo'.envir play: ( 'vol': 1, 'endframe': 5445632, 'buf': 'yang_bird', 'selectionNum': 0, 
  'startframe': 0, 'playfunc': 'grainfroth', 'trate': 0, 'pos': 0 )" ]
//:--[78907.245179416]
[ '/code', "nil @>.tokyo \\amp" ]
//:--[78907.245283083]
[ '/code', "nil @>.tokyo \\pos" ]
//:--[78907.245345541]
[ '/code', "nil @>.tokyo \\trate" ]
//:--[78907.24540025]
[ '/code', "nil @>.tokyo \\vol" ]
//:--[78911.746499958]
[ '/code', "nil @>. tokyo \\pos" ]
//:--[78911.74668575]
[ '/code', "nil @>.tokyo \\pos" ]
//:--[78914.184078083]
[ '/code', "{ \\x1.sr.lin(\\lo.kr(0), \\hi.kr(1)) } @>.tokyo \\pos" ]
//:--[78918.670666916]
[ '/code', "nil @>. tokyo \\trate" ]
//:--[78918.670774708]
[ '/code', "nil @>.tokyo \\trate" ]
//:--[78921.327270625]
[ '/code', "{ \\z1.sr.lin(\\lo.kr(0), \\hi.kr(1)) } @>.tokyo \\trate" ]
//:--[78932.132471458]
[ '/code', "nil @>. tokyo \\vol" ]
//:--[78932.132595916]
[ '/code', "nil @>.tokyo \\vol" ]
//:--[78954.880103875]
[ '/code', "{ var x; x = \\x2.sr; (x > 0.5).lag(1) } @>.tokyo \\vol" ]
//:--[78970.7178615]
[ '/code', "nil @>. tokyo \\pos" ]
//:--[78970.718066125]
[ '/code', "{ \\x3.sr.lin(\\lo.kr(0), \\hi.kr(1)) } @>.tokyo \\pos" ]
//:--[78974.535420666]
[ '/code', "nil @>. tokyo \\trate" ]
//:--[78974.535554375]
[ '/code', "{ \\z3.sr.lin(\\lo.kr(0), \\hi.kr(1)) } @>.tokyo \\trate" ]
//:--[78977.848933958]
[ '/code', "nil @>. tokyo \\vol" ]
//:--[78977.84907875]
[ '/code', "{ var x; x = \\x4.sr; (x > 0.5).lag(1) } @>.tokyo \\vol" ]
//:--[79065.214538375]
[ '/code', "\\tokyo.envir.stopSynths" ]
//:--[79065.2147565]
[ '/code', "nil @>. tokyo \\amp" ]
//:--[79065.214839375]
[ '/code', "nil @>.yoshi \\amp" ]
//:--[79065.214941916]
[ '/code', "nil @>. tokyo \\pos" ]
//:--[79065.215010458]
[ '/code', "{ \\x3.sr.lin(\\lo.kr(0), \\hi.kr(1)) } @>.yoshi \\pos" ]
//:--[79065.216839375]
[ '/code', "nil @>. tokyo \\trate" ]
//:--[79065.216923541]
[ '/code', "{ \\z3.sr.lin(\\lo.kr(0), \\hi.kr(1)) } @>.yoshi \\trate" ]
//:--[79065.218729458]
[ '/code', "nil @>. tokyo \\vol" ]
//:--[79065.218811458]
[ '/code', "{ var x; x = \\x4.sr; (x > 0.5).lag(1) } @>.yoshi \\vol" ]
//:--[79066.746900791]
[ '/code', "'tokyo'.envir play: ( 'selectionNum': 0, 'ampctl': [ 'tokyo', 'amp', 1, 'off', 0, 1, 'lin', \"x.lag(1).exp(500, 1000)\", \"(1 - z.lag(1)).exp(500, 1000)\", \"(x + y + z).lag(1).exp(500, 1000)\" ], 'startframe': 283138, 'trate': 0, 
  'pos': 0, 'player': 'tokyo', 'vol': 1, 'endframe': 2125398, 'buf': 'bird_crickets', 
  'paramctl': ( 'vol': [ 'tokyo', 'vol', 2, 'cx', 0, 10, 'lin', \"(x > 0.5).lag(1)\", \"(1 - z.lag(1)).exp(500, 1000)\", \"(x + y + z).lag(1).exp(500, 1000)\" ], 'trate': [ 'tokyo', 'trate', 1, 'z', 0, 1, 'lin', \"x.lag(1).exp(500, 1000)\", \"(1 - z.lag(1)).exp(500, 1000)\", \"(x + y + z).lag(1).exp(500, 1000)\" ], 'pos': [ 'tokyo', 'pos', 1, 'x', 0, 1, 'lin', \"x.lag(1).exp(500, 1000)\", \"(1 - z.lag(1)).exp(500, 1000)\", \"(x + y + z).lag(1).exp(500, 1000)\" ] ), 'playfunc': 'grainfroth' )" ]
//:--[79066.752137]
[ '/code', "nil @>.tokyo \\amp" ]
//:--[79066.752234]
[ '/code', "{ \\x1.sr.lin(\\lo.kr(0), \\hi.kr(1)) } @>.tokyo \\pos" ]
//:--[79066.75379075]
[ '/code', "{ \\z1.sr.lin(\\lo.kr(0), \\hi.kr(1)) } @>.tokyo \\trate" ]
//:--[79066.755197041]
[ '/code', "{ var x; x = \\x2.sr; (x > 0.5).lag(1) } @>.tokyo \\vol" ]
//:--[79067.326964166]
[ '/code', "\\tokyo.envir.stopSynths" ]
//:--[79069.460324041]
[ '/code', "'yoshi'.envir play: ( 'vol': 1, 'endframe': 5445632, 'buf': 'yang_bird', 'selectionNum': 0, 
  'startframe': 0, 'playfunc': 'grainfroth', 'trate': 0, 'pos': 0 )" ]
//:--[79069.465543]
[ '/code', "nil @>.yoshi \\amp" ]
//:--[79069.4656425]
[ '/code', "{ \\x3.sr.lin(\\lo.kr(0), \\hi.kr(1)) } @>.yoshi \\pos" ]
//:--[79069.467348166]
[ '/code', "{ \\z3.sr.lin(\\lo.kr(0), \\hi.kr(1)) } @>.yoshi \\trate" ]
//:--[79069.4690465]
[ '/code', "{ var x; x = \\x4.sr; (x > 0.5).lag(1) } @>.yoshi \\vol" ]
//:--[79070.945227791]
[ '/code', "\\yoshi.envir.stopSynths" ]
//:--[79072.277905166]
[ '/code', "\\corfu.envir.stopSynths" ]
//:--[79079.927902125]
[ '/code', "'yoshi'.envir play: ( 'vol': 1, 'endframe': 5445632, 'buf': 'yang_bird', 'selectionNum': 0, 
  'startframe': 0, 'playfunc': 'grainfroth', 'trate': 0, 'pos': 0 )" ]
//:--[79079.934116625]
[ '/code', "nil @>.yoshi \\amp" ]
//:--[79079.934244458]
[ '/code', "{ \\x3.sr.lin(\\lo.kr(0), \\hi.kr(1)) } @>.yoshi \\pos" ]
//:--[79079.936078833]
[ '/code', "{ \\z3.sr.lin(\\lo.kr(0), \\hi.kr(1)) } @>.yoshi \\trate" ]
//:--[79079.937867958]
[ '/code', "{ var x; x = \\x4.sr; (x > 0.5).lag(1) } @>.yoshi \\vol" ]
//:--[79314.129546458]
[ '/code', "\\yoshi.envir.stopSynths" ]
//:--[79316.749685583]
[ '/code', "'corfu'.envir play: ( 'vol': 1, 'endframe': 5466047, 'buf': 'yangdrums', 'selectionNum': 0, 
  'startframe': 1781526, 'playfunc': 'grainfroth', 'trate': 0, 'pos': 0 )" ]
//:--[79316.755980125]
[ '/code', "nil @>.corfu \\amp" ]
//:--[79316.756097125]
[ '/code', "{ \\x4.sr.lin(\\lo.kr(0), \\hi.kr(1)) } @>.corfu \\pos" ]
//:--[79316.758074375]
[ '/code', "{ \\z4.sr.lin(\\lo.kr(0), \\hi.kr(1)) } @>.corfu \\trate" ]
//:--[79316.759816875]
[ '/code', "{ var x; x = \\x3.sr; (x > 0.5).lag(1) } @>.corfu \\vol" ]
//:--[79355.418913625]
[ '/code', "nil @>. corfu \\pos" ]
//:--[79355.419123333]
[ '/code', "{ \\x1.sr.lin(\\lo.kr(0), \\hi.kr(1)) } @>.corfu \\pos" ]
//:--[79359.570634333]
[ '/code', "nil @>. corfu \\trate" ]
//:--[79359.570816291]
[ '/code', "{ \\z2.sr.lin(\\lo.kr(0), \\hi.kr(1)) } @>.corfu \\trate" ]
//:--[79362.484729041]
[ '/code', "nil @>. corfu \\trate" ]
//:--[79362.484838375]
[ '/code', "{ \\z1.sr.lin(\\lo.kr(0), \\hi.kr(1)) } @>.corfu \\trate" ]
//:--[79364.435738208]
[ '/code', "nil @>. corfu \\vol" ]
//:--[79364.435896833]
[ '/code', "{ var x; x = \\x2.sr; (x > 0.5).lag(1) } @>.corfu \\vol" ]
//:--[79443.831398666]
[ '/code', "\\corfu.envir.stopSynths" ]
//:--[79455.322763416]
[ '/code', "\\corfu.envir.stopSynths" ]
//:--[79479.191935916]
[ '/code', "{ \\x1.sr.lin(\\lo.kr(0), \\hi.kr(1)) } @>.tokyo \\pos" ]
//:--[79490.677155541]
[ '/code', "nil @>. tokyo \\rate" ]
//:--[79490.677294083]
[ '/code', "nil @>.tokyo \\rate" ]
//:--[79494.006512375]
[ '/code', "nil @>. tokyo \\trate" ]
//:--[79494.006655541]
[ '/code', "nil @>.tokyo \\trate" ]
//:--[79507.003723166]
[ '/code', "nil @>. tokyo \\thresh" ]
//:--[79507.003867125]
[ '/code', "nil @>.tokyo \\thresh" ]
//:--[79510.990612583]
[ '/code', "{ \\x4.sr.lin(\\lo.kr(0), \\hi.kr(80)) } @>.tokyo \\thresh" ]
//:--[79517.893773375]
[ '/code', "{ \\z2.sr.lin(\\lo.kr(0.01), \\hi.kr(10)) } @>.tokyo \\rate" ]
//:--[79520.857582]
[ '/code', "nil @>.tokyo \\rate" ]
//:--[79523.187940166]
[ '/code', "{ \\x2.sr.lin(\\lo.kr(0.01), \\hi.kr(10)) } @>.tokyo \\rate" ]
//:--[79525.156619708]
[ '/code', "{ \\x3.sr.lin(\\lo.kr(1), \\hi.kr(120)) } @>.tokyo \\trate" ]
//:--[79535.769748916]
[ '/code', "'tokyo'.envir play: ( 'vol': 1, 'endframe': 5466047, 'buf': 'yangdrums', 'selectionNum': 0, 
  'startframe': 1781526, 'rate': 1, 'thresh': 0.0, 'trate': 0, 'pos': 0, 
  'playfunc': 'grainmagabove' )" ]
//:--[79535.775667208]
[ '/code', "nil @>.tokyo \\amp" ]
//:--[79535.775756458]
[ '/code', "{ \\x1.sr.lin(\\lo.kr(0), \\hi.kr(1)) } @>.tokyo \\pos" ]
//:--[79535.777338333]
[ '/code', "{ \\x2.sr.lin(\\lo.kr(0.01), \\hi.kr(10)) } @>.tokyo \\rate" ]
//:--[79535.778921333]
[ '/code', "{ \\x3.sr.lin(\\lo.kr(1), \\hi.kr(120)) } @>.tokyo \\trate" ]
//:--[79535.780730666]
[ '/code', "nil @>.tokyo \\vol" ]
//:--[79535.780809208]
[ '/code', "{ \\x4.sr.lin(\\lo.kr(0), \\hi.kr(80)) } @>.tokyo \\thresh" ]
//:--[79548.554631625]
[ '/code', "\\tokyo.envir.set(\\thresh, \\hi, 10.0)" ]
//:--[79635.376426583]
[ '/code', "\\tokyo.envir.set(\\thresh, \\hi, 5.0)" ]
//:--[79640.51264675]
[ '/code', "\\tokyo.envir.set(\\thresh, \\hi, 1.0)" ]
//:--[79829.539749125]
[ '/code', "\\tokyo.envir.set(\\thresh, \\hi, 10.0)" ]
//:--[79879.491736666]
[ '/code', "\\tokyo.envir.stopSynths" ]
//:--[79903.184632208]
[ '/code', "\\tokyo.envir.stopSynths" ]
//:--[79909.463774958]
[ '/code', "\\tokyo.envir.stopSynths" ]
//:--[79909.463934416]
[ '/code', "nil @>. tokyo \\amp" ]
//:--[79909.464075]
[ '/code', "nil @>.iani \\amp" ]
//:--[79909.464211166]
[ '/code', "nil @>. tokyo \\pos" ]
//:--[79909.464269]
[ '/code', "nil @>.iani \\pos" ]
//:--[79909.464328]
[ '/code', "nil @>. tokyo \\rate" ]
//:--[79909.464383708]
[ '/code', "nil @>.iani \\rate" ]
//:--[79909.464441291]
[ '/code', "nil @>. tokyo \\trate" ]
//:--[79909.464499625]
[ '/code', "nil @>.iani \\trate" ]
//:--[79909.464555708]
[ '/code', "nil @>. tokyo \\vol" ]
//:--[79909.464621916]
[ '/code', "nil @>.iani \\vol" ]
//:--[79909.464682833]
[ '/code', "nil @>. tokyo \\stretch" ]
//:--[79909.46474675]
[ '/code', "nil @>.iani \\stretch" ]
//:--[79909.464800958]
[ '/code', "nil @>. tokyo \\shift" ]
//:--[79909.464861166]
[ '/code', "nil @>.iani \\shift" ]
//:--[79914.848255458]
[ '/code', "{ \\x1.sr.lin(\\lo.kr(0), \\hi.kr(1)) } @>.iani \\pos" ]
//:--[79917.664874041]
[ '/code', "nil @>. iani \\rate" ]
//:--[79917.664978875]
[ '/code', "nil @>.iani \\rate" ]
//:--[79919.426681791]
[ '/code', "{ \\x2.sr.lin(\\lo.kr(0.01), \\hi.kr(10)) } @>.iani \\rate" ]
//:--[79922.995955875]
[ '/code', "nil @>. iani \\trate" ]
//:--[79922.996075916]
[ '/code', "nil @>.iani \\trate" ]
//:--[79924.666668625]
[ '/code', "{ \\x3.sr.lin(\\lo.kr(1), \\hi.kr(120)) } @>.iani \\trate" ]
//:--[79930.366745958]
[ '/code', "nil @>. iani \\stretch" ]
//:--[79930.366873291]
[ '/code', "nil @>.iani \\stretch" ]
//:--[79932.983307916]
[ '/code', "{ \\x4.sr.lin(\\lo.kr(0.01), \\hi.kr(10)) } @>.iani \\stretch" ]
//:--[79941.876353666]
[ '/code', "nil @>. iani \\shift" ]
//:--[79941.876500541]
[ '/code', "nil @>.iani \\shift" ]
//:--[79944.263707791]
[ '/code', "{ \\z4.sr.lin(\\lo.kr(-700), \\hi.kr(700)) } @>.iani \\shift" ]
//:--[79949.992441583]
[ '/code', "'iani'.envir play: ( 'selectionNum': 0, 'startframe': 1781526, 'rate': 1, 'stretch': 1, 
  'trate': 0, 'pos': 0, 'vol': 1, 'endframe': 5466047, 'shift': 0, 
  'buf': 'yangdrums', 'playfunc': 'grainmagshift' )" ]
//:--[79950.001934125]
[ '/code', "nil @>.iani \\amp" ]
//:--[79950.002051]
[ '/code', "{ \\x1.sr.lin(\\lo.kr(0), \\hi.kr(1)) } @>.iani \\pos" ]
//:--[79950.00374575]
[ '/code', "{ \\x2.sr.lin(\\lo.kr(0.01), \\hi.kr(10)) } @>.iani \\rate" ]
//:--[79950.005616708]
[ '/code', "{ \\x3.sr.lin(\\lo.kr(1), \\hi.kr(120)) } @>.iani \\trate" ]
//:--[79950.007376166]
[ '/code', "nil @>.iani \\vol" ]
//:--[79950.007459416]
[ '/code', "{ \\x4.sr.lin(\\lo.kr(0.01), \\hi.kr(10)) } @>.iani \\stretch" ]
//:--[79950.009227125]
[ '/code', "{ \\z4.sr.lin(\\lo.kr(-700), \\hi.kr(700)) } @>.iani \\shift" ]
//:--[79998.077196333]
[ '/code', "\\iani.envir.set(\\stretch, \\lo, 1.0)" ]
//:--[79999.91164225]
[ '/code', "\\iani.envir.set(\\stretch, \\hi, 1.0)" ]
//:--[80002.709198208]
[ '/code', "\\iani.envir.set(\\shift, \\lo, 0.0)" ]
//:--[80004.798282583]
[ '/code', "\\iani.envir.set(\\shift, \\hi, 0.0)" ]
//:--[80028.251752125]
[ '/code', "\\iani.envir.set(\\stretch, \\lo, 9.0)" ]
//:--[80031.385865916]
[ '/code', "\\iani.envir.set(\\stretch, \\hi, 1.2)" ]
//:--[80040.358511208]
[ '/code', "\\iani.envir.set(\\shift, \\lo, -2.0)" ]
//:--[80042.767279916]
[ '/code', "\\iani.envir.set(\\shift, \\hi, 2.0)" ]
//:--[80095.895632625]
[ '/code', "\\iani.envir.stopSynths" ]
//:--[80108.36712925]
[ '/code', "\\iani.envir.stopSynths" ]
//:--[80116.085340416]
[ '/code', "\\tokyo.envir.stopSynths" ]
//:--[80116.085503458]
[ '/code', "nil @>. tokyo \\amp" ]
//:--[80116.085613416]
[ '/code', "nil @>.justine \\amp" ]
//:--[80116.085725166]
[ '/code', "nil @>. tokyo \\rate" ]
//:--[80116.085793958]
[ '/code', "nil @>.justine \\rate" ]
//:--[80116.085852916]
[ '/code', "nil @>. tokyo \\vol" ]
//:--[80116.085910833]
[ '/code', "nil @>.justine \\vol" ]
//:--[80116.085967208]
[ '/code', "nil @>. tokyo \\stretch" ]
//:--[80116.086021291]
[ '/code', "nil @>.justine \\stretch" ]
//:--[80116.086077541]
[ '/code', "nil @>. tokyo \\shift" ]
//:--[80116.086133916]
[ '/code', "nil @>.justine \\shift" ]
//:--[80121.535921833]
[ '/code', "{ \\x1.sr.lin(\\lo.kr(0.01), \\hi.kr(10)) } @>.justine \\rate" ]
//:--[80123.39994325]
[ '/code', "nil @>. justine \\vol" ]
//:--[80123.400063166]
[ '/code', "nil @>.justine \\vol" ]
//:--[80125.654800458]
[ '/code', "{ \\z2.sr.lin(\\lo.kr(0), \\hi.kr(10)) } @>.justine \\vol" ]
//:--[80128.135524083]
[ '/code', "nil @>. justine \\stretch" ]
//:--[80128.13565825]
[ '/code', "nil @>.justine \\stretch" ]
//:--[80130.131891333]
[ '/code', "{ \\x3.sr.lin(\\lo.kr(0.01), \\hi.kr(10)) } @>.justine \\stretch" ]
//:--[80132.800063916]
[ '/code', "nil @>. justine \\shift" ]
//:--[80132.800234125]
[ '/code', "nil @>.justine \\shift" ]
//:--[80135.835107708]
[ '/code', "{ \\x4.sr.lin(\\lo.kr(-700), \\hi.kr(700)) } @>.justine \\shift" ]
//:--[80142.1965635]
[ '/code', "'justine'.envir play: ( 'vol': 1, 'endframe': 5466047, 'shift': 0, 'buf': 'yangdrums', 
  'selectionNum': 0, 'startframe': 1781526, 'rate': 1, 'stretch': 1, 'playfunc': 'magshift' )" ]
//:--[80142.203829041]
[ '/code', "nil @>.justine \\amp" ]
//:--[80142.203954291]
[ '/code', "{ \\x1.sr.lin(\\lo.kr(0.01), \\hi.kr(10)) } @>.justine \\rate" ]
//:--[80142.205595958]
[ '/code', "{ \\z2.sr.lin(\\lo.kr(0), \\hi.kr(10)) } @>.justine \\vol" ]
//:--[80142.207091583]
[ '/code', "{ \\x3.sr.lin(\\lo.kr(0.01), \\hi.kr(10)) } @>.justine \\stretch" ]
//:--[80142.209118541]
[ '/code', "{ \\x4.sr.lin(\\lo.kr(-700), \\hi.kr(700)) } @>.justine \\shift" ]
//:--[80145.249878875]
[ '/code', "0 @>.justine \\startframe" ]
//:--[80145.250166833]
[ '/code', "10656768 @>.justine \\endframe" ]
//:--[80157.611967708]
[ '/code', "\\justine.envir.set(\\stretch, \\lo, 0.2)" ]
//:--[80160.20913875]
[ '/code', "\\justine.envir.set(\\stretch, \\hi, 2.0)" ]
//:--[80166.762582833]
[ '/code', "\\justine.envir.set(\\shift, \\lo, -100.0)" ]
//:--[80172.334064666]
[ '/code', "\\justine.envir.set(\\shift, \\hi, 100.0)" ]
//:--[80193.52978775]
[ '/code', "\\justine.envir.set(\\rate, \\lo, 0.5)" ]
//:--[80196.567152041]
[ '/code', "\\justine.envir.set(\\rate, \\hi, 2.0)" ]
//:--[80224.353456625]
[ '/code', "\\justine.envir.set(\\stretch, \\hi, 3.0)" ]
//:--[80300.780645666]
[ '/code', "\\justine.envir.set(\\rate, \\hi, 4.0)" ]
//:--[80578.167368125]
[ '/code', "\\justine.envir.set(\\rate, \\lo, 0.1)" ]
//:--[80583.284076875]
[ '/code', "\\justine.envir.set(\\rate, \\hi, 8.0)" ]
//:--[80838.494715958]
[ '/code', "{ \\x2.sr.lin(\\lo.kr(0), \\hi.kr(10)) } @>.justine \\vol" ]
//:--[80876.85703675]
[ '/code', "\\justine.envir.stopSynths" ]

//the end

