// Exporting 9 snippets on 230828_221217
//:--[18367.020075375]
[ '/code', "\\tokyo.envir.stopSynths" ]
//:--[18367.80612]
[ '/code', "'tokyo'.envir play: ( 'vol': 7.0590688267551, 'endframe': 188893, 'buf': 'default', 'selectionNum': 0, 
  'startframe': 0, 'rate': 1, 'thresh': 12.917161860678, 'trate': 50, 'pos': 0.32420091324201, 
  'playfunc': 'grainmagabove' )" ]
//:--[18367.813123791]
[ '/code', "nil @>.tokyo \\amp" ]
//:--[18367.81319325]
[ '/code', "{ \\x3.sr.lin(\\lo.kr(0), \\hi.kr(1)) } @>.tokyo \\pos" ]
//:--[18367.814332]
[ '/code', "{ \\x2.sr.lin(\\lo.kr(0.01), \\hi.kr(3.0)) } @>.tokyo \\rate" ]
//:--[18367.815136625]
[ '/code', "nil @>.tokyo \\trate" ]
//:--[18367.815175416]
[ '/code', "nil @>.tokyo \\vol" ]
//:--[18367.815210291]
[ '/code', "{ \\z1.sr.lin(\\lo.kr(0), \\hi.kr(10.0)) } @>.tokyo \\thresh" ]
//:--[18493.837504125]
[ '/code', "\\tokyo.envir.stopSynths" ]

//the end

