/*  3 Sep 2023 12:16
Testing the note-to-midi framework.
*/


(midinote: OctaveSpec($c, "").midi).play;
(midinote: OctaveSpec($c, "1").midi).play;
(midinote: OctaveSpec($c, "2").midi).play;
(midinote: OctaveSpec($c, "3").midi).play;
(midinote: OctaveSpec($c, "4").midi).play;

(midinote: OctaveSpec($C, "").midi).play;
(midinote: OctaveSpec($C, "1").midi).play;
(midinote: OctaveSpec($C, "2").midi).play;
(midinote: OctaveSpec($C, "3").midi).play;
(midinote: OctaveSpec($C, "4").midi).play;