/* 20 Jul 2023 01:30

*/

{
    var trate, dur, clk, pos, pan, b;
	b = \default.buf;
    trate = MouseY.kr(1,400,1);
    dur = 8 / trate;
    clk = Impulse.kr(trate);
    pos = MouseX.kr(0,BufDur.kr(b));
    pan = WhiteNoise.kr(0.8);
    TGrains.ar(2, clk, b, 2 ** WhiteNoise.kr(2), pos, dur, pan, 0.1);
}.play;
